<?xml version="1.0" encoding="UTF-8"?>
<map version="1.10" tiledversion="1.11.2" orientation="orthogonal" renderorder="right-down" width="70" height="50" tilewidth="32" tileheight="32" infinite="0" nextlayerid="8" nextobjectid="55">
 <tileset firstgid="1" name="plataformas1" tilewidth="32" tileheight="32" spacing="1" margin="1" tilecount="60" columns="10">
  <image source="pataformasahorasí.png" width="330" height="199"/>
 </tileset>
 <tileset firstgid="61" name="plataformas2" tilewidth="32" tileheight="32" spacing="1" margin="1" tilecount="15" columns="5">
  <image source="plataformas3.png" width="166" height="100"/>
 </tileset>
 <tileset firstgid="76" name="picos" tilewidth="32" tileheight="32" spacing="1" margin="1" tilecount="10" columns="5">
  <image source="picos.png" width="166" height="67"/>
 </tileset>
 <layer id="1" name="Capa de patrones 1" width="70" height="50">
  <data encoding="csv">
0,0,0,0,0,0,0,0,0,0,0,0,0,0,0,0,0,0,0,0,0,0,0,0,0,0,0,0,0,0,0,0,0,0,0,0,0,0,0,0,0,0,0,0,0,0,0,0,0,0,0,0,0,0,0,0,0,0,0,0,0,0,0,0,0,0,0,0,0,0,
0,0,0,0,0,0,0,0,0,0,0,0,0,0,0,0,0,0,0,0,0,0,0,0,0,0,0,0,0,0,0,0,0,0,0,0,0,0,0,0,0,0,0,0,0,0,0,0,0,0,0,0,0,0,0,0,0,0,0,0,0,0,0,0,0,0,0,0,0,0,
0,0,0,0,0,0,0,0,0,0,0,0,0,0,0,0,0,0,0,0,0,0,0,0,0,0,0,0,0,0,0,0,0,0,0,0,0,0,0,0,0,0,0,0,0,0,0,0,0,0,0,0,0,0,0,0,0,0,0,0,0,0,0,0,0,0,0,0,0,0,
0,0,0,0,0,0,0,0,0,0,0,0,0,0,0,0,0,0,0,0,0,0,0,0,0,0,0,0,0,0,0,0,0,0,0,0,0,0,0,0,0,0,0,0,0,0,0,0,0,0,0,0,0,0,0,0,0,0,0,0,0,0,0,0,0,0,0,0,0,0,
0,0,0,0,0,0,0,0,0,0,0,0,0,0,0,0,0,0,0,0,0,0,0,0,0,0,0,0,0,0,0,0,0,0,0,0,0,0,0,0,0,0,0,0,0,0,0,0,0,0,0,0,0,0,0,0,0,0,0,0,0,0,0,0,0,0,0,0,0,0,
0,0,0,0,0,0,0,0,0,0,0,0,0,0,0,0,0,0,0,0,0,0,0,0,0,0,0,0,0,0,0,0,0,0,0,0,0,0,0,0,0,0,0,0,0,0,0,0,0,0,0,0,0,0,0,0,0,0,0,0,0,0,0,0,0,0,0,0,0,0,
0,0,0,0,0,0,0,0,0,0,0,0,0,0,0,0,0,0,0,0,0,0,0,0,0,0,0,0,0,0,0,0,0,0,0,0,0,0,0,0,0,0,0,0,0,0,0,0,0,0,0,0,0,0,0,0,0,0,0,0,0,0,0,0,0,0,0,0,0,0,
0,0,0,0,0,0,0,0,0,0,0,0,0,0,0,0,0,0,0,0,0,0,0,0,0,0,0,0,0,0,0,0,0,0,0,0,0,0,0,0,0,0,0,0,0,0,0,0,0,0,0,0,0,0,0,0,0,0,0,0,0,0,0,0,0,0,0,0,0,0,
0,0,0,0,0,0,0,0,0,0,0,0,0,0,0,0,0,0,0,0,0,0,0,0,0,0,0,0,0,0,0,0,0,0,0,0,0,0,0,0,0,0,0,0,0,0,0,0,0,0,0,0,0,0,0,0,0,0,0,0,0,0,0,0,0,0,0,0,0,0,
0,0,0,0,0,0,0,0,0,0,0,0,0,0,0,0,0,0,0,0,0,0,0,0,0,0,0,0,0,0,0,0,0,0,0,0,0,0,0,0,0,0,0,0,0,0,0,0,0,0,0,0,0,0,0,0,0,0,0,0,0,0,0,0,0,0,0,0,0,0,
0,0,0,0,0,0,0,0,0,0,0,0,0,0,0,0,0,0,0,0,0,0,0,0,0,0,0,0,0,0,0,0,0,0,0,0,0,0,0,0,0,0,0,0,0,0,0,0,0,0,0,0,0,0,0,0,0,0,0,0,0,0,0,0,0,0,0,0,0,0,
0,0,0,0,0,0,0,0,0,0,0,0,0,0,0,0,0,0,0,0,0,0,0,0,0,0,0,0,0,0,0,0,0,0,0,0,0,0,0,0,0,0,0,0,0,0,0,0,0,0,0,0,0,0,0,0,0,0,0,0,0,0,0,0,0,0,0,0,0,0,
0,0,0,0,0,0,0,0,0,0,0,0,0,0,0,0,0,0,0,0,0,0,0,0,0,0,0,0,0,0,0,0,0,0,0,0,0,0,0,0,0,0,0,0,0,0,0,0,0,0,0,0,0,0,0,0,0,0,0,0,0,0,0,0,0,0,0,0,0,0,
0,0,0,0,0,0,0,0,0,0,0,0,0,0,0,0,0,0,0,0,0,0,0,0,0,0,0,0,0,0,0,0,0,0,0,0,0,0,0,0,0,0,0,0,0,0,0,0,0,0,0,0,0,0,0,0,0,0,0,0,0,0,0,0,0,0,0,0,0,0,
0,0,0,0,0,0,0,0,0,0,0,0,0,0,0,0,0,0,0,0,0,0,0,0,0,0,0,0,0,0,0,0,0,0,0,0,0,0,0,0,0,0,0,0,0,0,0,0,0,0,0,0,0,0,0,0,0,0,0,0,0,0,0,0,0,0,0,0,0,0,
0,0,0,0,0,0,0,0,0,0,0,0,0,0,0,0,0,0,0,0,0,0,0,0,0,0,0,0,0,0,0,0,0,0,0,0,0,0,0,0,0,0,0,0,0,0,0,0,0,0,0,0,0,0,0,0,0,0,0,0,0,0,0,0,0,0,0,0,0,0,
0,0,0,0,0,0,0,0,0,0,0,0,0,0,0,0,0,0,0,0,0,0,0,0,0,0,0,0,0,0,0,0,0,0,0,0,0,0,0,0,0,0,0,0,0,0,0,0,0,0,0,0,0,0,0,0,0,0,0,0,0,0,0,0,0,0,0,0,0,0,
0,0,0,0,0,0,0,0,0,0,0,0,0,0,0,0,0,0,0,0,0,0,0,0,0,0,0,0,0,0,0,0,0,0,0,0,0,0,0,0,0,0,0,0,0,0,0,0,0,0,0,0,0,0,0,0,0,0,0,0,0,0,0,0,0,0,0,0,0,0,
0,0,0,0,0,0,0,0,0,0,0,0,0,0,0,0,0,0,0,0,0,0,0,0,0,0,0,0,0,0,0,0,0,0,0,0,0,0,0,0,0,0,0,0,0,0,0,0,0,0,0,0,0,0,0,0,0,0,0,0,0,0,0,0,0,0,0,0,0,0,
0,0,0,0,0,0,0,0,0,0,0,0,0,0,0,0,0,0,0,0,0,0,0,0,0,0,0,0,0,0,0,0,0,0,0,0,0,0,0,0,0,0,0,0,0,0,0,0,0,0,0,0,0,0,0,0,0,0,0,0,0,0,0,0,0,0,0,0,0,0,
0,0,0,0,0,0,0,0,0,0,0,0,0,0,0,0,0,0,0,0,0,0,0,0,0,0,0,0,0,0,0,0,0,0,0,0,0,0,0,0,0,0,0,0,0,0,0,0,0,0,0,0,0,0,0,0,0,0,0,0,0,0,0,0,0,0,0,0,0,0,
0,0,0,0,0,0,0,0,0,0,0,0,0,0,0,0,0,0,0,0,0,0,0,0,0,0,0,0,0,0,0,0,0,0,0,0,0,0,0,0,0,0,0,0,0,0,0,0,0,0,0,0,0,0,0,0,0,0,0,0,0,0,0,0,0,0,0,0,0,0,
0,0,0,0,0,0,0,0,0,0,0,0,0,0,0,0,0,0,0,0,0,0,0,0,0,0,0,0,0,0,0,0,0,0,0,0,0,0,0,0,0,0,0,0,0,0,0,0,0,0,0,0,0,0,0,0,0,0,0,0,0,0,0,0,0,0,0,0,0,0,
0,0,0,0,0,0,0,0,0,0,0,0,0,0,0,0,0,0,0,0,0,0,0,0,0,0,0,0,0,0,0,0,0,0,0,0,0,0,0,0,0,0,0,0,0,0,0,0,0,0,0,0,0,0,0,0,0,0,0,0,0,0,0,0,0,0,0,0,0,0,
0,13,0,0,0,0,0,0,0,0,0,65,0,52,0,0,0,0,0,0,0,65,0,0,0,0,0,0,0,0,0,24,13,0,0,0,0,0,11,0,0,0,0,0,0,0,0,0,0,0,0,0,0,65,0,0,0,0,0,0,0,0,0,0,0,0,0,0,0,0,
2,3,46,0,0,0,0,0,0,45,4,1,2,3,4,1,4,1,2,3,4,1,2,3,4,1,2,1,2,3,4,1,2,3,4,1,2,3,4,1,2,3,4,1,2,3,4,1,2,1,2,3,4,1,2,3,4,1,2,3,4,1,2,3,4,1,2,3,4,1,
0,0,0,0,0,0,0,61,0,0,0,0,0,0,80,79,0,80,83,84,0,0,0,0,0,0,0,0,0,80,79,0,80,83,84,0,0,0,0,0,0,0,83,79,80,0,0,0,0,0,0,0,0,0,0,80,79,0,80,83,84,0,0,0,0,0,0,0,0,0,
0,0,0,0,61,0,0,0,0,0,0,0,0,0,0,0,0,0,0,0,0,0,0,0,0,0,0,0,0,0,0,0,0,0,0,0,0,0,0,0,0,0,0,0,0,0,0,0,0,0,0,0,0,0,0,0,0,0,0,0,0,0,0,0,0,0,0,0,0,0,
0,0,0,0,0,0,61,0,0,0,0,0,0,0,0,0,0,0,0,0,0,0,0,0,0,0,0,0,0,0,0,0,0,0,0,0,0,0,0,0,0,0,0,0,0,0,0,0,0,0,0,0,0,0,0,0,0,0,0,0,0,0,0,0,0,0,0,0,0,0,
50,65,48,49,50,47,48,49,50,47,11,47,48,13,24,47,48,49,50,47,48,49,50,47,48,49,50,47,48,49,50,47,48,47,48,49,50,47,48,49,50,47,48,49,50,47,48,49,50,47,48,49,50,47,65,47,57,49,24,11,0,0,0,0,0,0,0,0,0,0,
4,1,2,3,4,1,2,3,4,1,2,1,2,3,4,1,2,3,4,1,2,3,4,1,2,3,4,1,2,3,4,1,2,1,2,3,4,1,2,3,4,1,2,3,4,1,2,3,4,1,2,3,4,1,4,1,2,3,4,1,46,0,0,45,46,0,0,0,0,0,
0,0,0,0,0,0,0,0,0,80,83,84,83,84,80,0,0,0,0,0,0,0,0,0,0,0,0,0,0,0,0,0,0,0,0,0,0,0,0,0,0,0,0,0,0,0,0,0,0,0,80,79,0,80,83,84,0,0,0,0,0,0,0,0,0,0,0,0,0,0,
0,0,0,0,0,0,0,0,0,0,0,0,0,0,0,0,0,0,0,0,0,0,0,0,0,0,0,0,0,0,0,0,0,0,0,0,0,0,0,0,0,0,0,0,0,0,0,0,0,0,0,0,0,0,0,0,0,0,0,0,0,0,0,0,0,0,45,46,0,0,
0,0,0,0,0,0,0,0,0,0,0,0,0,0,0,0,0,0,0,0,0,0,0,0,0,0,0,0,0,0,0,0,0,0,0,0,0,0,0,0,0,0,0,0,0,0,0,0,0,0,0,0,0,0,0,0,0,0,0,0,0,0,0,45,46,0,0,0,0,0,
48,13,0,0,0,0,0,0,0,0,11,47,51,49,50,47,50,47,48,65,50,47,48,49,50,47,48,47,48,49,50,47,48,49,50,47,48,49,50,47,48,49,50,47,48,49,50,47,48,47,48,49,50,47,65,49,50,47,48,24,50,47,48,49,50,47,48,49,11,47,
2,3,46,0,0,0,0,0,0,45,4,1,2,3,4,1,4,1,2,3,4,1,2,3,77,5,5,1,2,3,76,5,5,3,4,1,76,5,5,1,2,3,4,77,5,3,4,1,2,1,2,3,4,1,2,3,4,1,2,3,4,1,2,3,4,1,2,3,4,1,
79,78,0,0,0,0,0,61,0,0,0,80,0,0,0,0,80,80,78,0,0,0,0,0,0,80,79,0,80,83,84,0,0,0,80,84,83,0,0,0,0,0,0,0,0,0,0,0,0,80,78,83,0,0,0,0,0,0,0,0,0,0,0,0,80,79,80,0,0,0,
0,0,0,0,61,0,0,0,0,0,0,0,0,0,0,0,0,0,0,0,0,0,0,0,0,0,0,0,0,0,0,0,0,0,0,0,0,0,0,0,0,0,0,0,0,0,0,0,0,0,0,0,0,0,0,0,0,0,0,0,0,0,0,0,0,0,0,0,0,0,
0,0,0,0,0,0,61,0,0,0,0,0,0,0,0,0,0,0,0,0,0,0,0,0,0,0,0,0,0,0,0,0,0,0,0,0,0,0,0,0,0,0,0,0,0,0,0,0,0,0,0,0,0,0,0,0,0,0,0,0,0,0,0,0,0,0,0,0,0,0,
50,47,65,49,50,47,48,49,50,47,13,11,48,49,50,47,48,49,50,47,48,49,50,47,48,49,50,47,48,49,50,47,48,47,48,49,50,47,48,49,50,47,48,49,50,47,48,49,50,47,57,11,50,47,0,0,0,0,0,0,0,0,0,0,0,0,0,0,0,0,
4,1,2,3,4,1,2,3,4,1,2,1,2,3,4,1,2,3,4,1,2,3,4,1,2,3,4,1,2,3,4,1,2,1,2,3,4,1,2,3,4,1,2,3,4,1,2,3,4,1,2,3,4,1,46,0,0,31,35,0,0,31,35,0,0,31,35,0,0,0,
0,0,0,0,80,83,84,0,0,0,80,80,0,0,0,0,0,0,80,78,0,0,0,0,0,0,0,0,0,0,0,79,80,0,0,0,0,0,0,0,0,80,80,80,80,79,0,80,83,84,0,0,0,79,0,0,0,0,0,0,0,0,0,0,0,0,0,0,0,0,
0,0,0,0,0,0,0,0,0,0,0,0,0,0,0,0,0,0,0,0,0,0,0,0,0,0,0,0,0,0,0,0,0,0,0,0,0,0,0,0,0,0,0,0,0,0,0,0,0,0,0,0,0,0,0,0,0,0,0,0,0,0,0,0,0,0,0,0,31,35,
0,0,0,0,0,0,0,0,0,0,0,0,0,0,0,0,0,0,0,0,0,0,0,0,0,0,0,0,0,0,0,0,0,0,0,0,0,0,0,0,0,0,0,0,0,0,0,0,0,0,0,0,0,0,0,0,0,0,0,0,0,0,0,0,0,0,0,0,0,0,
0,0,0,0,0,0,0,0,0,0,0,0,0,0,0,0,0,0,0,0,0,0,0,31,35,0,0,0,0,0,0,0,0,0,0,31,35,0,31,35,0,31,35,0,0,0,0,0,0,0,0,0,0,0,31,35,0,0,31,35,0,0,31,35,0,0,31,35,0,0,
47,65,49,50,47,48,49,50,47,51,13,50,47,48,49,65,47,48,49,50,47,48,0,0,0,0,49,50,47,13,24,50,47,48,0,0,0,0,0,0,0,0,0,0,47,48,49,24,13,48,49,50,0,0,0,0,0,0,0,0,0,0,0,0,0,0,0,0,0,0,
1,2,3,4,1,2,3,4,1,2,3,4,1,2,3,4,1,2,3,4,1,2,6,7,8,9,3,4,1,2,3,4,1,2,6,7,8,9,6,7,6,7,8,9,1,2,3,4,1,2,3,4,6,7,8,9,6,7,8,9,6,7,8,9,6,7,8,9,6,7,
14,14,14,14,14,14,14,14,14,14,14,14,14,14,14,14,14,14,14,14,14,14,25,25,25,25,14,14,14,14,14,14,14,14,25,25,25,25,25,25,25,25,25,25,14,14,14,14,14,14,14,14,25,25,25,25,25,25,25,25,25,25,25,25,25,25,25,25,25,25,
15,15,15,15,15,15,15,15,15,15,15,15,15,15,15,15,15,15,15,15,15,15,25,25,25,25,15,15,15,15,15,15,15,15,25,25,25,25,25,25,25,25,25,25,15,15,15,15,15,15,15,15,25,25,25,25,25,25,25,25,25,25,25,25,25,25,25,25,25,25,
15,15,15,15,15,15,15,15,15,15,15,15,15,15,15,15,15,15,15,15,15,15,25,25,25,25,15,15,15,15,15,15,15,15,25,25,25,25,25,25,25,25,25,25,15,15,15,15,15,15,15,15,25,25,25,25,25,25,25,25,25,25,25,25,25,25,25,25,25,25
</data>
 </layer>
 <objectgroup id="6" name="caida"/>
 <objectgroup id="2" name="Piso">
  <object id="6" x="0" y="1471.75" width="703.333" height="128.25"/>
  <object id="7" x="832.182" y="1471.82" width="255.667" height="127.455"/>
  <object id="8" x="1408.18" y="1472" width="255.205" height="127.636"/>
  <object id="9" x="1120.18" y="1408" width="64" height="32"/>
  <object id="10" x="1216.18" y="1408" width="63.8182" height="32"/>
  <object id="11" x="1312.18" y="1408" width="63.6364" height="31.8182"/>
  <object id="12" x="1728.18" y="1408.18" width="63.4545" height="31.8182"/>
  <object id="13" x="1856" y="1408" width="64" height="32.1818"/>
  <object id="14" x="1984.18" y="1408" width="63.6364" height="32.5455"/>
  <object id="15" x="2112" y="1408.18" width="63.8182" height="32"/>
  <object id="16" x="2176" y="1344.18" width="64" height="32.1818"/>
  <object id="17" x="2080" y="1280" width="64.1818" height="32"/>
  <object id="18" x="1952.18" y="1279.82" width="64" height="31.8182"/>
  <object id="19" x="1824.18" y="1280" width="63.6364" height="31.8182"/>
  <object id="20" x="-4" y="1280" width="1764" height="32"/>
  <object id="21" x="192.125" y="1216.13" width="31.75" height="29.875"/>
  <object id="22" x="128.125" y="1184" width="31.875" height="30"/>
  <object id="23" x="224" y="1152" width="32" height="30.125"/>
  <object id="24" x="0" y="1119.82" width="95.6364" height="31.8182"/>
  <object id="25" x="288.182" y="1120" width="1952.64" height="32.1818"/>
  <object id="26" x="2016.13" y="1055.88" width="63.5" height="32"/>
  <object id="27" x="2112" y="1024" width="64" height="32"/>
  <object id="28" x="2016.13" y="960" width="63.75" height="31.875"/>
  <object id="29" x="0.25" y="960" width="1951.63" height="32.125"/>
  <object id="30" x="-0.545455" y="800" width="96.5455" height="32"/>
  <object id="31" x="224.182" y="832.182" width="31.6364" height="29.6364"/>
  <object id="32" x="128" y="863.818" width="31.8182" height="30"/>
  <object id="33" x="192" y="896" width="32" height="30"/>
  <object id="34" x="288.125" y="800.125" width="1952.63" height="31.875"/>
  <object id="38" x="736.333" y="1409.33" width="63.6667" height="30.3333"/>
 </objectgroup>
 <objectgroup id="3" name="lava">
  <object id="35" name="lava" x="703.75" y="1462.5" width="127.5" height="127.75"/>
  <object id="36" name="lava" x="1088.17" y="1458.83" width="318.667" height="127"/>
  <object id="37" name="lava" x="1664.25" y="1456.75" width="576.083" height="128.667"/>
 </objectgroup>
 <objectgroup id="5" name="gases">
  <object id="39" name="g" x="1361.33" y="1154" width="64" height="92"/>
  <object id="41" name="g" x="1012" y="1153.33" width="64" height="92"/>
  <object id="45" name="g" x="684" y="1153.33" width="64" height="92"/>
  <object id="48" name="g" x="509.333" y="994.667" width="64" height="92"/>
  <object id="50" name="g" x="856" y="993.333" width="64" height="92"/>
  <object id="52" name="g" x="1168.67" y="994" width="64" height="92"/>
  <object id="53" name="g" x="1534.67" y="995.333" width="64" height="92"/>
 </objectgroup>
 <objectgroup id="4" name="player_start">
  <object id="1" name="player_start" x="63.6364" y="1469.21" width="40.3636" height="1.69697"/>
 </objectgroup>
 <objectgroup id="7" name="robot">
  <object id="54" name="robort_start" x="1733.67" y="793.667" width="124" height="4.66667"/>
 </objectgroup>
</map>
