<?xml version="1.0" encoding="UTF-8"?>
<map version="1.10" tiledversion="1.11.2" orientation="orthogonal" renderorder="right-down" width="70" height="50" tilewidth="32" tileheight="32" infinite="0" nextlayerid="9" nextobjectid="313">
 <tileset firstgid="1" name="tilds" tilewidth="32" tileheight="32" tilecount="256" columns="16">
  <image source="TX Tileset Ground.png" width="512" height="512"/>
 </tileset>
 <tileset firstgid="257" name="TX Village Props" tilewidth="32" tileheight="32" tilecount="1024" columns="32">
  <image source="TX Village Props.png" width="1024" height="1024"/>
 </tileset>
 <layer id="4" name="Capa de patrones 3" width="70" height="50">
  <data encoding="csv">
0,0,0,0,0,0,0,0,0,0,0,0,0,0,0,0,0,0,0,0,0,0,0,0,0,0,0,0,0,0,0,0,0,0,0,0,0,0,0,0,1034,0,0,0,0,0,0,0,1034,0,0,1034,0,0,1034,1034,0,1034,0,0,0,0,0,0,0,0,0,0,1034,0,
0,0,0,0,0,0,0,0,0,0,0,0,0,0,0,0,0,0,0,0,0,0,0,0,0,0,0,0,0,0,0,0,0,0,0,0,0,0,0,0,1034,0,0,0,0,0,0,0,1034,0,0,1034,0,0,1034,1034,0,1034,0,0,0,0,0,0,0,0,0,0,1034,0,
0,0,0,0,0,0,0,0,0,0,0,0,0,0,0,0,0,0,0,0,0,0,0,0,0,0,0,0,0,0,0,0,0,0,0,0,0,0,0,0,1034,0,0,0,0,0,0,0,1034,0,0,1034,0,0,1034,1034,0,1034,0,0,0,0,0,0,0,0,0,0,1034,0,
0,0,0,0,0,0,0,0,0,0,0,0,0,0,0,0,0,0,0,0,0,0,0,0,0,0,0,0,0,0,0,0,0,0,0,0,0,0,0,0,1034,0,806,0,0,0,0,0,1034,0,0,1034,0,0,1034,1034,0,1034,0,0,0,0,0,0,0,0,0,0,1034,0,
0,0,0,0,0,0,0,0,0,0,0,0,0,0,0,0,0,0,0,0,0,0,0,0,0,0,0,0,0,0,0,0,0,0,0,0,0,0,0,0,1034,782,838,0,0,839,717,718,1034,0,0,1034,0,0,1034,1034,0,1034,0,0,0,0,0,0,0,0,0,0,1034,0,
0,0,0,0,0,0,0,0,0,0,0,0,0,0,0,0,0,0,0,0,0,0,0,0,0,0,0,0,0,0,0,0,0,0,0,0,0,0,0,0,0,0,0,0,0,0,0,0,0,0,0,0,1034,0,0,1034,0,0,0,0,0,1034,0,0,1034,0,0,0,1034,0,
0,0,0,0,0,0,0,0,0,0,0,0,0,0,0,0,0,0,0,0,0,0,0,0,0,0,0,0,0,0,0,0,0,0,0,0,0,0,0,0,0,0,0,0,0,0,0,0,0,0,0,0,1034,0,0,1034,0,0,0,0,0,1034,0,0,1034,0,0,0,1034,0,
0,0,0,0,0,0,0,0,0,0,0,0,0,0,0,0,0,0,0,0,0,0,0,0,0,0,0,0,0,0,0,0,0,0,0,0,0,0,0,0,0,0,0,0,0,0,0,0,0,0,0,0,1034,0,0,1034,0,0,0,0,0,1034,0,0,1034,0,0,0,1034,0,
0,0,0,0,0,0,0,0,0,0,0,0,0,0,0,0,0,0,0,0,0,0,0,0,0,0,0,0,0,0,0,0,0,0,0,0,0,0,0,0,0,0,0,0,0,0,0,0,0,0,0,0,1034,0,0,1034,0,0,0,0,0,1034,0,0,1034,0,0,0,1034,0,
0,0,0,0,0,0,0,0,0,0,0,0,0,0,0,0,0,0,0,0,0,0,0,0,0,0,0,0,0,0,0,0,0,0,0,0,0,0,0,0,0,0,0,0,0,0,0,0,0,0,0,0,1034,0,0,1034,0,0,0,0,0,1034,0,0,1034,0,0,0,1034,0,
0,0,0,0,0,0,0,0,0,0,0,0,0,0,0,0,0,0,0,0,0,0,0,0,0,0,0,0,0,0,0,0,0,0,0,0,0,0,0,0,0,0,0,0,0,0,0,0,0,0,0,0,1034,0,0,0,0,0,0,1034,0,0,0,0,0,0,0,0,0,0,
0,0,0,0,0,0,0,0,0,0,0,0,0,0,0,0,0,0,0,0,0,0,0,0,0,0,0,0,0,0,0,0,0,0,0,0,0,0,0,0,0,0,0,0,0,0,0,0,0,0,0,0,1034,0,0,0,0,0,0,1034,0,0,0,0,0,0,0,0,0,0,
0,0,0,0,0,0,0,0,0,0,0,0,0,0,0,0,0,0,0,0,0,0,0,0,0,0,0,0,0,0,0,0,0,0,0,0,0,0,0,0,0,0,0,0,0,0,0,0,0,0,0,403,1034,0,0,0,0,0,0,1034,0,403,0,0,0,0,0,403,0,0,
0,0,0,0,0,0,0,0,0,0,0,0,0,0,0,0,0,0,0,0,0,0,0,0,0,0,0,0,0,0,0,0,0,0,0,0,0,0,0,0,0,0,0,0,0,0,0,0,0,0,0,435,1034,0,0,0,0,0,0,1034,0,435,920,921,923,924,431,435,0,0,
0,0,0,0,0,0,0,0,0,0,0,0,0,0,0,0,0,0,0,0,0,0,0,0,0,0,0,0,0,0,0,0,0,0,0,0,0,0,0,0,0,0,0,0,0,0,0,0,0,0,0,0,0,0,0,0,0,0,0,0,0,0,0,0,0,0,0,0,0,0,
0,0,0,0,0,0,0,0,0,0,0,0,0,0,0,0,0,0,0,0,0,0,0,0,0,0,0,0,0,0,0,0,0,0,0,0,0,0,0,0,0,0,0,0,0,0,0,0,0,0,0,0,0,0,0,0,0,0,0,0,0,0,0,0,0,0,0,0,0,0,
0,0,0,0,0,0,0,0,0,0,0,0,0,0,0,0,0,0,0,0,0,0,0,0,0,0,0,0,0,0,0,0,0,0,0,0,0,0,0,0,0,0,0,0,0,0,0,0,0,0,0,0,0,0,0,0,0,0,0,0,0,0,0,0,0,0,0,0,0,0,
0,0,0,0,0,0,0,0,0,0,0,0,0,0,0,0,0,0,0,0,0,0,0,0,0,0,0,0,0,0,0,0,0,0,0,0,0,0,0,0,0,0,0,0,0,0,0,0,0,0,0,0,0,0,0,0,0,0,0,0,0,0,0,0,0,0,0,0,0,0,
0,0,0,0,0,0,0,0,0,0,0,0,0,0,0,0,0,0,0,0,0,0,0,0,0,0,0,0,0,0,0,0,0,0,0,0,0,0,0,0,0,0,0,0,0,0,0,0,0,0,0,0,0,0,0,0,0,0,0,0,0,0,0,0,0,0,0,0,0,0,
0,0,0,0,0,0,0,0,0,0,0,0,0,0,0,0,0,0,0,0,0,0,0,0,0,0,0,0,0,0,0,0,0,0,0,0,0,0,0,0,0,0,0,0,0,0,0,0,0,0,0,0,0,0,0,0,0,0,0,0,0,0,0,0,0,0,0,0,0,0,
0,0,0,0,0,0,0,0,0,0,0,0,0,0,0,0,0,0,0,0,0,0,0,0,0,0,0,0,0,0,0,0,0,0,0,0,0,0,0,0,0,0,0,0,0,0,0,0,0,0,0,0,0,0,0,0,0,0,0,0,0,0,0,0,0,0,0,0,0,0,
0,0,0,0,0,0,0,0,0,0,0,0,0,0,0,0,0,0,0,0,0,0,0,0,0,0,0,0,0,0,0,0,0,0,0,0,0,0,0,0,0,0,0,0,0,0,0,0,0,0,0,0,0,0,0,0,0,0,0,0,0,0,0,0,0,0,0,0,0,0,
0,0,0,0,0,0,0,0,0,0,0,0,0,0,0,0,0,0,0,0,0,0,0,0,0,0,0,1034,0,0,0,0,0,0,1034,0,0,0,0,0,0,0,0,0,0,0,0,0,0,0,0,0,0,0,0,0,0,0,0,0,0,0,0,0,0,0,0,0,0,0,
0,0,0,0,0,0,0,0,0,0,0,0,0,0,0,0,0,0,0,0,0,0,0,0,0,0,0,1034,0,0,0,0,0,0,1034,0,0,0,0,0,0,0,0,0,0,0,0,0,0,0,0,0,0,0,0,0,0,0,0,0,0,0,0,0,0,0,0,0,0,0,
0,0,0,0,0,0,0,0,0,0,0,0,0,0,0,0,0,0,0,0,0,0,0,0,0,0,0,1034,0,0,0,0,0,0,1034,0,0,0,0,0,0,0,0,0,0,0,0,0,0,0,0,0,0,0,0,0,0,0,0,0,0,0,0,0,0,0,0,0,0,0,
0,0,0,0,0,0,0,0,0,0,0,0,0,0,0,0,0,0,0,0,0,0,0,0,0,0,0,1034,0,0,0,0,0,0,1034,0,0,0,0,0,0,0,0,0,0,0,0,0,0,0,0,0,0,0,0,0,0,0,0,0,0,0,0,0,0,0,0,0,0,0,
0,0,0,0,0,0,0,0,0,0,0,0,0,0,0,0,0,0,0,0,0,0,0,0,0,0,0,1034,0,0,0,0,0,0,1034,0,0,0,0,0,0,0,0,0,0,0,0,0,0,0,0,0,0,0,0,0,0,0,0,0,0,0,0,0,0,0,0,0,0,0,
0,0,0,0,0,0,0,0,0,0,0,0,0,0,0,0,0,0,0,0,0,0,0,0,0,0,0,1034,0,0,0,0,0,0,1034,0,0,0,0,0,0,0,0,0,0,0,0,0,0,0,0,0,0,0,0,0,0,0,0,0,0,0,0,0,0,0,0,0,0,0,
0,0,0,0,0,0,0,0,0,0,0,0,0,0,0,0,0,0,0,0,0,0,0,0,0,0,0,1034,0,0,0,0,0,0,1034,0,0,0,0,0,0,0,0,0,0,0,0,0,0,0,0,0,0,0,0,0,0,0,0,0,0,0,0,0,0,0,0,0,0,0,
0,0,0,0,0,0,0,0,0,0,0,0,0,0,0,0,0,0,0,0,0,0,0,0,0,0,0,0,0,0,0,0,0,0,0,0,0,0,0,0,0,0,0,0,0,0,0,0,0,0,0,0,0,0,0,0,0,0,0,0,0,0,0,0,0,0,0,0,0,0,
0,0,0,0,0,0,0,0,0,0,0,0,0,0,0,0,0,0,0,0,0,0,0,0,0,0,0,0,0,0,0,0,0,0,0,0,0,0,0,0,0,0,0,0,0,0,0,0,0,0,0,0,0,0,0,0,0,0,0,0,0,0,0,0,0,0,0,0,0,0,
0,0,0,0,0,0,0,0,0,0,0,0,0,0,0,0,0,0,0,0,0,0,0,0,0,0,0,0,0,0,0,0,0,0,0,0,0,0,0,0,0,0,0,0,0,0,0,0,0,0,0,0,0,0,0,0,0,0,0,0,0,0,0,0,0,0,0,0,0,0,
0,0,0,0,0,0,0,0,0,0,0,0,0,0,0,0,0,0,0,0,0,0,0,0,0,0,0,0,0,0,0,0,0,0,0,0,0,0,0,0,0,0,0,0,0,0,0,0,0,0,0,0,0,0,0,0,0,0,0,0,0,0,0,0,0,0,0,0,0,0,
0,0,0,0,0,0,0,0,0,0,0,0,0,0,0,0,0,0,0,0,0,0,0,0,0,0,0,0,0,0,0,0,0,0,0,0,0,0,0,0,0,0,0,0,0,0,0,0,0,0,0,0,0,0,0,0,0,0,0,0,0,0,0,0,0,0,0,0,0,0,
0,0,0,0,0,0,0,0,0,0,0,0,0,0,0,0,0,0,0,0,0,0,0,0,0,0,0,0,0,0,0,0,0,0,0,0,0,0,0,0,0,0,0,0,0,0,0,0,0,0,0,0,0,0,0,0,0,0,0,0,0,0,0,0,0,0,0,0,0,0,
0,0,0,0,0,0,0,0,0,0,0,0,0,0,0,0,0,0,0,0,0,0,0,0,0,0,0,0,0,0,0,0,0,0,0,0,0,0,0,0,0,0,0,0,0,0,0,0,0,0,0,0,0,0,0,0,0,0,0,0,0,0,0,0,0,0,0,0,0,0,
0,0,0,0,0,0,0,0,0,0,0,0,0,0,0,0,0,0,0,0,0,0,0,0,0,0,0,0,0,0,0,0,0,0,0,0,0,0,0,0,0,0,0,0,0,0,0,0,0,0,0,0,0,0,0,0,0,0,0,0,0,0,0,0,0,0,0,0,0,0,
0,0,0,0,0,0,0,0,0,0,0,0,0,0,0,0,0,0,0,0,0,0,0,0,0,0,0,0,0,0,0,0,0,0,0,0,0,0,0,0,0,0,0,0,0,0,0,0,0,0,0,0,0,0,0,0,0,0,0,0,0,0,0,0,0,0,0,0,0,0,
0,0,0,0,0,0,0,0,0,0,0,0,0,0,0,0,0,0,0,0,0,0,0,0,0,0,0,0,0,0,0,0,0,0,0,0,0,0,0,0,0,0,0,0,0,0,0,0,0,0,0,0,0,0,0,0,0,0,0,0,0,0,0,0,0,0,0,0,0,0,
0,0,0,0,0,0,0,0,0,0,0,0,0,0,0,0,0,0,0,0,0,0,0,0,0,0,0,0,0,0,0,0,0,0,0,0,0,0,0,0,0,0,0,0,0,0,0,0,0,0,0,0,0,0,0,0,0,0,0,0,0,0,0,0,0,0,0,0,0,0,
0,0,0,0,0,0,0,0,0,0,0,0,0,0,0,0,0,0,0,0,0,0,0,0,0,0,0,0,0,0,0,0,0,0,0,0,0,0,0,0,0,0,0,0,0,0,0,0,0,0,0,0,0,0,0,0,0,0,0,0,0,0,0,0,0,0,0,0,0,0,
0,0,0,0,0,0,0,0,0,0,0,0,0,0,0,0,0,0,0,0,0,0,0,0,0,0,0,0,0,0,0,0,0,0,0,0,0,0,0,0,0,0,0,0,0,0,0,0,0,0,0,0,0,0,0,0,0,0,0,0,0,0,0,0,0,0,0,0,0,0,
0,0,0,0,0,0,0,0,0,0,0,0,0,0,0,0,0,0,0,0,0,0,0,0,0,0,0,0,0,0,0,0,0,0,0,0,0,0,0,0,0,0,0,0,0,0,0,0,0,0,0,0,0,0,0,0,0,0,0,0,0,0,0,0,0,0,0,0,0,0,
0,0,0,0,0,0,0,0,0,0,0,0,0,0,0,0,0,0,0,0,0,0,0,0,0,0,0,0,0,0,0,0,0,0,0,0,0,0,0,0,0,0,0,0,0,0,0,0,0,0,0,0,0,0,0,0,0,0,0,0,0,0,0,0,0,0,0,0,0,0,
0,0,0,0,0,0,0,0,0,0,0,0,0,0,0,0,0,0,0,0,0,0,0,0,0,0,0,0,0,0,0,0,0,0,0,0,0,0,0,0,0,0,0,0,0,0,0,0,0,0,0,0,0,0,0,0,0,0,0,0,0,0,0,0,0,0,0,0,0,540,
0,0,0,0,0,0,0,0,0,0,0,0,0,0,0,0,0,0,0,0,0,0,0,0,0,0,0,0,0,0,0,0,0,0,0,0,0,0,0,0,0,0,0,0,0,0,0,0,0,0,0,0,0,0,0,0,0,0,0,0,76,0,0,0,0,0,0,0,0,572,
0,0,0,0,0,0,0,0,0,0,0,0,0,0,0,0,0,0,0,0,0,0,0,0,0,0,0,0,0,0,0,0,0,0,0,0,0,73,0,0,0,0,0,0,0,0,0,0,0,0,0,73,0,0,0,0,0,0,0,0,0,0,0,0,0,0,0,0,0,0,
0,0,0,0,0,0,0,0,0,0,0,0,0,0,0,0,0,0,0,0,0,0,0,0,0,0,0,0,0,0,0,0,0,0,0,0,0,73,0,0,0,0,0,0,73,0,0,0,0,0,0,73,0,0,0,0,0,0,0,0,0,0,0,0,0,0,0,0,0,0,
0,0,0,0,0,0,0,0,0,0,0,0,0,0,0,0,0,0,0,0,0,0,0,0,0,0,0,0,0,0,0,0,0,0,0,0,0,73,0,0,0,0,0,0,73,0,0,0,0,0,0,73,0,0,0,0,0,0,0,0,0,0,73,0,0,0,0,0,0,0,
0,0,0,0,0,0,0,0,0,0,0,0,0,0,0,0,0,0,0,0,0,0,0,0,0,0,0,0,0,0,0,0,0,0,0,0,0,73,0,0,0,0,0,0,73,0,0,0,0,0,0,73,0,0,0,0,0,0,0,0,0,0,73,0,0,0,0,0,0,0
</data>
 </layer>
 <layer id="1" name="Capa de patrones 1" width="70" height="50">
  <data encoding="csv">
1,2,2,2,2,2,3,0,0,0,0,0,0,0,0,0,0,0,0,0,0,0,0,0,0,0,0,0,0,0,0,0,0,0,0,0,0,0,0,0,0,0,0,0,0,0,0,0,0,0,73,0,0,0,0,0,0,0,0,0,0,0,0,0,0,0,0,0,0,73,
17,18,65,66,67,18,19,0,0,0,1,2,2,2,2,2,2,3,0,0,0,0,0,0,0,0,0,0,0,0,0,0,0,0,0,0,0,0,0,0,0,0,0,0,0,0,0,0,0,0,73,0,0,0,0,0,0,0,0,0,0,0,0,0,0,0,0,0,0,73,
17,18,81,82,83,18,97,2,2,2,99,65,66,66,66,66,67,97,2,2,2,2,3,0,0,0,0,0,0,0,0,0,0,0,0,0,0,0,0,0,0,0,0,0,0,0,0,0,0,0,73,0,0,0,0,0,0,0,0,0,0,0,0,0,0,0,0,0,0,73,
17,18,97,98,99,18,65,34,34,34,67,81,82,82,82,82,83,18,18,18,18,18,97,2,3,0,0,0,0,0,0,0,0,0,0,0,0,0,0,0,0,706,642,643,644,676,0,0,0,0,73,0,889,890,891,0,0,887,889,891,889,890,891,889,890,891,889,890,891,73,
33,34,34,34,67,65,35,0,0,0,17,97,98,98,98,98,99,65,34,34,67,109,18,18,97,2,3,0,0,0,0,0,0,0,0,0,0,706,676,0,0,0,0,0,0,0,0,0,0,0,73,920,921,922,923,924,919,920,921,921,921,921,921,921,921,921,921,922,923,73,
0,0,0,0,17,19,0,0,0,0,33,34,34,34,34,34,34,35,0,0,33,34,67,92,18,18,97,2,3,0,0,0,0,0,0,0,0,0,0,0,55,56,57,58,56,57,57,56,11,0,73,0,0,0,0,0,0,0,0,0,0,0,0,0,0,0,0,0,0,73,
0,0,0,0,17,19,0,0,0,0,0,0,0,0,0,0,0,0,0,0,0,0,33,34,67,18,109,18,97,2,3,0,0,0,0,0,0,0,0,0,0,0,73,0,0,73,190,0,0,0,73,0,0,0,0,0,0,0,0,0,0,0,0,0,0,0,0,0,0,73,
0,0,0,0,17,19,0,0,0,0,0,1,2,2,2,2,2,3,0,0,0,0,0,0,33,34,67,18,18,18,97,2,2,2,3,0,0,0,0,0,0,0,73,0,0,73,73,0,0,0,73,0,0,0,0,0,0,0,0,0,0,0,0,0,0,0,0,0,0,73,
0,0,0,0,17,19,0,0,0,0,0,17,65,66,67,18,18,19,0,0,0,0,0,0,0,0,33,34,67,18,92,18,18,109,112,0,0,0,0,0,0,0,73,0,0,73,192,0,0,0,73,0,0,0,0,0,889,890,891,889,890,891,0,887,888,889,889,890,891,73,
0,0,0,0,17,97,2,2,2,2,2,99,81,82,83,18,18,97,2,2,2,3,0,0,0,0,0,0,33,34,34,34,34,34,34,35,0,0,0,0,0,0,24,0,0,192,0,0,0,0,73,0,0,0,919,920,921,921,921,921,921,923,924,919,920,921,921,922,923,73,
0,0,0,0,17,18,92,93,92,93,124,18,97,98,99,18,18,18,18,109,18,19,0,0,0,0,0,0,0,0,0,0,0,0,0,0,0,0,0,0,0,0,0,0,0,0,0,0,0,0,73,0,0,0,0,0,0,0,0,0,0,0,0,0,0,0,0,0,0,73,
0,0,0,0,17,18,108,109,108,109,18,18,18,18,18,18,18,65,34,34,67,97,2,2,3,0,0,0,0,0,0,0,0,0,0,0,0,0,0,0,0,0,0,0,0,0,0,0,0,0,192,0,0,0,0,0,0,0,0,0,0,0,887,888,889,890,891,892,0,73,
0,0,0,0,17,65,34,34,34,34,34,67,18,18,18,18,18,19,0,0,17,18,124,18,19,0,0,0,0,0,0,0,0,0,0,0,0,0,0,0,0,0,0,815,816,817,0,0,0,0,0,0,888,889,890,890,891,889,890,891,0,0,919,920,921,922,923,924,0,73,
0,0,0,0,17,19,0,0,0,0,0,33,34,34,34,34,34,35,0,0,33,34,67,124,97,2,2,2,14,55,64,0,0,0,0,0,0,0,0,0,0,0,0,847,848,849,0,0,0,0,0,919,920,921,921,921,921,921,922,923,924,0,0,0,0,0,0,844,845,73,
0,0,0,0,17,19,0,0,0,0,0,0,0,0,0,0,0,0,0,0,0,0,17,18,18,18,92,109,19,0,73,0,0,0,0,0,0,0,0,0,0,0,0,0,0,0,0,0,0,0,10,118,118,118,118,118,118,118,118,118,118,118,118,118,118,118,118,118,118,188,
0,0,0,0,17,19,0,0,0,0,0,0,0,0,0,0,0,0,0,0,0,0,33,34,34,34,34,34,22,0,73,0,0,0,0,0,0,0,0,0,0,0,0,0,0,0,0,0,0,0,0,0,0,0,0,0,0,0,0,0,0,0,0,0,0,0,0,0,0,0,
1,2,2,2,99,97,2,2,2,3,0,0,0,0,0,0,0,0,0,0,0,0,0,0,0,0,0,0,0,0,192,0,0,0,0,0,0,0,0,0,0,0,0,0,0,0,0,0,0,0,0,0,0,0,0,0,0,0,0,0,0,1,2,2,2,2,2,2,2,3,
17,65,66,67,18,18,18,18,18,19,0,0,0,0,0,0,0,0,0,0,0,0,0,0,0,0,0,0,0,0,0,0,0,0,0,0,0,0,0,0,0,0,0,0,0,0,0,55,56,57,58,59,60,61,3,0,0,0,0,0,0,17,92,124,18,18,92,18,18,19,
17,81,82,83,65,66,67,18,18,19,0,0,0,0,0,0,0,0,0,0,0,0,0,0,0,0,0,0,0,0,0,0,55,57,11,0,0,0,0,0,0,0,0,0,0,0,0,71,72,73,74,75,18,18,19,0,0,0,0,0,0,17,65,66,67,18,18,18,18,19,
17,97,98,99,81,82,83,65,120,121,2,3,0,0,0,0,0,0,0,0,0,0,0,0,0,85,85,0,55,57,58,11,0,73,0,55,56,57,58,11,0,0,1,2,3,0,0,10,56,56,56,91,92,18,19,0,0,0,0,0,0,17,81,82,83,65,66,67,18,19,
17,18,18,18,97,98,99,81,136,137,18,112,0,0,0,0,0,0,0,13,14,0,0,5,6,101,101,0,0,73,0,0,0,73,0,71,72,73,74,0,13,14,17,18,19,0,0,0,0,0,0,17,108,109,19,0,0,0,0,0,0,17,97,98,99,81,82,83,18,19,
33,34,34,34,34,34,67,97,98,99,18,35,0,10,63,63,63,63,63,63,63,63,63,63,63,63,63,63,63,63,63,63,63,63,63,63,63,63,63,63,56,56,56,56,56,11,0,0,0,0,0,17,124,125,19,0,0,0,0,0,0,17,65,66,67,97,98,99,18,19,
0,0,0,0,0,0,83,18,18,18,19,0,0,0,0,0,0,0,0,0,0,0,0,0,0,0,0,0,0,0,0,0,0,0,0,0,0,0,0,0,0,0,0,0,0,0,0,0,0,0,0,17,92,18,19,0,0,0,0,0,0,17,81,82,83,18,18,92,93,19,
0,0,0,0,0,0,33,34,34,34,35,0,0,0,0,0,0,0,0,0,0,0,0,0,0,0,0,0,0,0,0,699,700,701,702,703,0,0,0,0,0,0,0,0,1,2,2,2,2,2,2,99,65,67,97,2,2,2,2,2,2,99,97,98,99,18,124,126,127,128,
0,0,0,0,0,0,0,0,0,0,0,10,11,0,0,0,0,0,0,0,0,0,0,0,0,0,0,0,0,0,0,731,732,733,734,735,0,0,0,0,0,0,0,1,99,18,18,18,18,18,18,18,19,17,18,18,18,18,18,18,18,18,18,18,18,18,18,142,143,144,
0,0,0,0,0,0,0,0,0,0,0,0,10,11,0,0,0,0,0,0,0,0,0,0,0,0,0,0,0,0,0,763,764,765,766,767,0,0,0,0,0,0,1,65,66,67,18,65,34,34,34,34,35,33,34,34,34,34,34,34,34,34,34,34,34,34,34,158,159,160,
0,0,0,0,0,0,0,0,0,0,0,0,0,0,0,0,0,0,0,0,0,0,0,0,0,0,0,0,0,0,0,795,796,797,798,799,0,0,0,0,0,1,99,81,82,83,65,35,0,0,0,0,0,0,0,0,0,0,0,0,0,0,0,0,0,0,0,174,175,176,
0,0,0,0,0,0,0,0,0,0,0,0,0,0,8,0,0,0,8,0,0,0,8,0,0,0,706,642,643,644,676,827,828,829,830,831,0,0,0,0,1,99,18,97,98,99,35,0,0,1,2,2,2,2,2,2,2,2,2,2,2,2,2,2,2,2,3,190,191,192,
0,0,0,0,0,0,0,0,0,0,0,0,0,0,24,0,8,0,24,0,8,0,24,0,8,0,850,851,852,853,0,859,718,861,862,863,0,0,0,1,65,66,67,18,65,35,0,0,0,17,92,93,109,18,18,18,18,18,124,18,18,18,18,109,18,18,19,192,0,0,
0,0,0,0,0,0,0,0,0,0,0,0,0,0,0,0,24,0,0,0,24,0,0,0,24,0,0,0,0,0,0,0,0,0,0,0,0,0,1,99,81,82,83,65,35,0,0,0,0,17,108,109,18,18,18,109,109,124,18,92,18,18,18,18,92,18,97,2,2,2,
0,0,0,0,0,0,0,0,0,0,0,0,0,0,0,0,0,0,0,0,0,0,0,0,0,0,0,0,0,0,0,0,0,0,0,0,0,1,99,18,97,98,99,35,0,0,0,0,0,33,66,67,65,66,66,66,66,66,66,66,66,66,66,66,67,18,18,18,18,18,
0,0,0,0,0,0,0,0,0,0,0,0,0,0,0,0,0,0,0,0,0,0,0,0,0,0,0,0,0,0,0,0,0,0,0,0,1,65,66,67,18,65,35,0,0,0,0,0,0,0,0,17,19,0,0,0,0,0,0,0,0,0,0,0,83,18,18,18,124,18,
55,56,56,56,56,56,57,11,0,0,0,0,0,0,0,0,0,0,0,0,0,0,0,0,0,0,0,0,0,0,0,0,0,0,0,1,99,81,82,83,65,35,0,0,0,0,0,0,0,0,0,17,19,0,0,0,0,0,0,0,0,0,0,0,83,18,18,18,18,18,
0,0,0,0,0,0,73,0,0,0,0,0,0,0,0,0,0,0,0,0,0,0,0,0,0,0,0,0,0,0,0,0,0,0,1,99,18,97,98,99,35,0,0,0,0,0,0,0,0,0,0,17,19,0,0,0,0,53,54,55,56,57,58,59,99,141,141,141,141,18,
0,0,0,0,0,0,73,0,0,0,0,0,0,0,0,0,0,0,0,0,0,0,0,0,0,0,0,0,0,0,0,0,0,1,65,66,67,18,65,35,0,0,0,0,0,0,0,0,0,0,0,17,19,0,0,0,0,69,70,71,72,73,74,75,124,76,124,76,141,18,
0,0,0,0,0,0,73,0,0,0,0,0,0,0,0,0,0,0,0,0,0,0,0,0,0,0,0,0,0,0,0,0,1,99,81,82,83,65,35,0,0,0,0,0,0,0,0,0,0,0,0,17,19,0,0,0,0,0,0,0,0,73,0,75,76,76,76,76,76,18,
1,2,3,0,0,0,73,0,0,0,0,0,0,0,0,0,0,0,0,0,55,56,57,58,59,2,2,2,2,2,2,2,99,18,97,98,99,35,0,0,0,0,0,0,0,0,0,2,2,2,2,99,19,0,0,0,0,0,0,0,55,63,63,63,63,63,63,63,63,64,
17,18,19,0,0,0,73,0,0,0,0,0,0,0,0,0,0,0,0,0,71,72,73,74,0,0,0,0,0,0,0,18,18,18,18,18,35,0,0,0,0,0,0,0,0,0,0,0,34,34,34,34,35,0,0,0,0,0,53,0,0,0,0,0,0,0,0,0,0,80,
63,63,57,63,63,63,63,11,0,0,0,0,0,0,0,0,0,0,0,8,0,0,73,0,0,0,0,0,0,0,0,18,18,18,18,35,0,0,0,0,0,0,0,0,0,0,0,0,0,0,0,0,0,0,0,0,53,0,0,0,0,0,0,0,0,0,0,0,0,176,
0,0,73,0,0,0,0,0,0,0,0,0,0,0,0,0,0,0,0,0,55,56,57,58,34,34,34,34,34,34,34,34,34,34,35,0,0,0,0,0,0,0,0,0,0,0,0,0,0,0,0,0,0,0,53,0,0,0,0,0,0,0,1,60,60,60,60,3,0,192,
0,0,73,0,0,0,0,0,0,0,53,0,0,0,0,0,0,0,0,0,0,0,73,0,0,0,0,0,0,0,0,0,0,0,0,0,0,0,0,0,0,0,0,0,0,0,0,0,0,0,0,0,0,0,0,0,0,0,0,0,0,1,99,18,18,18,18,97,3,0,
0,0,73,0,0,0,0,0,0,53,0,0,0,0,0,0,0,0,0,0,0,0,0,0,0,0,0,0,0,0,0,0,0,0,0,0,0,0,0,0,0,0,0,0,0,0,0,0,0,0,0,0,53,0,55,56,57,58,59,60,61,99,92,93,18,18,92,93,19,0,
0,0,73,0,0,0,0,0,53,0,0,0,0,0,0,0,0,0,0,0,0,0,0,0,0,0,0,0,0,0,0,0,0,0,0,0,0,0,0,0,0,0,0,0,0,0,0,0,0,0,0,53,0,0,71,72,73,74,75,18,18,18,108,109,92,93,108,109,19,0,
0,0,73,0,0,0,0,53,0,0,0,0,0,0,0,0,0,0,0,0,0,0,0,0,0,0,0,0,0,0,0,0,0,0,0,0,0,0,0,0,0,0,0,0,0,0,0,0,0,0,0,0,0,0,0,0,73,0,75,18,18,18,124,125,108,109,124,125,19,0,
0,0,73,0,0,0,0,0,0,0,0,0,55,56,57,58,11,0,0,0,0,0,0,0,0,0,0,0,0,0,0,0,0,0,0,55,56,57,58,11,0,0,0,0,0,0,0,0,0,55,56,57,58,11,0,0,73,0,75,18,18,18,18,18,124,125,18,18,19,0,
0,0,73,0,0,53,0,0,0,0,0,0,71,72,73,74,0,0,55,56,57,58,11,0,0,0,0,0,0,0,0,0,0,0,0,71,72,73,74,0,0,0,55,56,57,58,11,0,0,71,72,73,74,55,56,118,118,118,118,118,11,18,18,18,18,18,18,18,19,0,
0,0,73,0,0,0,0,55,56,57,58,11,0,0,73,0,0,0,71,72,73,74,55,56,57,58,58,58,58,58,58,58,11,0,0,0,0,0,0,0,0,0,71,72,73,74,0,0,0,0,0,0,0,0,0,0,0,0,0,0,55,56,57,58,63,63,63,63,63,11,
0,13,2,2,2,14,0,71,72,73,74,0,0,0,73,0,0,0,0,0,73,0,0,0,73,0,0,0,0,0,0,0,0,0,0,0,0,0,0,0,0,0,0,0,0,0,0,0,0,0,0,0,0,0,0,0,0,0,0,0,71,72,73,74,0,0,0,0,0,0,
13,99,18,18,18,97,2,2,2,2,2,2,2,2,2,2,2,2,2,2,2,14,0,0,73,0,284,285,284,285,284,285,284,285,284,285,284,285,284,285,284,285,284,285,284,285,284,285,284,285,284,285,284,285,284,285,284,285,284,285,284,285,284,285,284,285,284,285,284,285,
29,34,34,34,34,34,67,18,18,18,18,18,18,18,18,18,18,18,18,18,18,19,0,0,73,0,316,317,316,317,316,317,316,317,316,317,316,317,316,317,316,317,316,317,316,317,316,317,316,317,316,317,316,317,316,317,316,317,316,317,316,317,316,317,316,317,316,317,316,317
</data>
 </layer>
 <objectgroup id="8" name="personaje">
  <object id="220" name="player_start" x="97.4203" y="95.3333" width="31" height="0.304348"/>
 </objectgroup>
 <layer id="2" name="Capa de patrones 2" width="70" height="50">
  <data encoding="csv">
0,288,0,288,0,501,0,0,0,0,0,0,785,786,787,788,789,0,0,0,0,0,0,0,0,0,0,0,0,0,0,0,0,0,0,0,0,0,0,0,0,0,0,0,0,726,727,728,729,730,0,0,0,0,0,0,0,0,0,0,0,0,0,0,0,2684354956,2684354924,2684354892,0,0,
0,425,0,0,0,533,0,0,0,0,0,0,375,0,0,0,1034,1034,0,717,0,0,0,0,0,0,0,0,0,0,0,0,0,0,0,0,0,0,0,0,0,0,0,0,0,0,0,760,761,762,0,0,0,1031,1032,0,0,0,0,0,0,0,0,0,0,2684354957,2684354925,2684354893,0,0,
0,457,0,0,0,0,0,269,0,0,0,0,407,0,0,0,1034,1034,1034,0,0,0,0,0,0,0,0,0,0,0,0,0,0,0,0,0,0,0,0,0,0,0,0,0,0,790,791,792,793,794,0,0,0,0,0,0,0,1031,1032,0,0,0,0,0,0,405,0,263,0,0,
0,303,0,0,0,303,0,301,0,0,0,0,439,0,0,781,1034,549,1034,0,0,0,0,0,0,0,0,0,0,0,0,0,0,0,0,0,0,0,0,0,0,0,0,0,0,822,823,824,825,826,0,0,0,638,0,0,0,0,0,638,0,0,0,0,0,437,0,295,0,0,
524,525,0,0,0,0,0,0,0,0,0,0,0,0,0,0,1034,0,0,0,0,0,0,0,0,0,2684354924,0,0,0,0,0,0,0,0,0,0,0,0,0,781,782,783,0,0,854,540,541,542,858,0,0,0,0,0,0,0,0,0,0,0,0,0,0,0,0,0,0,0,0,
0,0,0,0,0,0,0,0,0,0,0,638,634,635,0,0,0,0,0,0,0,0,0,0,0,0,2684354925,0,0,0,0,0,582,583,584,0,0,0,0,0,0,0,0,0,0,0,0,0,0,0,0,0,0,0,0,0,706,0,0,0,0,0,0,0,0,0,0,0,0,0,
0,0,0,0,0,0,0,0,0,0,0,0,0,0,0,0,0,0,0,0,0,0,0,431,0,0,0,0,0,288,0,0,614,615,616,0,0,0,0,904,0,0,0,0,0,0,0,0,0,0,0,0,0,0,1031,1032,0,0,0,0,0,0,0,0,0,0,0,0,0,0,
0,0,0,0,0,0,753,754,755,756,757,1034,0,0,0,1034,1034,0,0,0,0,0,0,0,0,638,0,0,0,0,0,288,0,0,0,0,0,908,906,904,0,0,0,0,0,0,0,0,0,0,0,0,0,0,0,0,0,1031,1032,0,0,0,0,0,0,0,0,463,0,0,
0,0,0,0,0,0,785,786,787,788,789,1034,0,0,0,1034,1034,0,0,0,0,0,0,0,0,0,0,0,0,0,0,0,0,0,0,0,0,0,0,0,0,0,0,0,0,0,0,0,0,0,0,0,0,0,1031,1032,718,0,718,0,297,0,0,0,0,0,0,495,0,0,
0,0,0,0,0,0,0,0,0,0,0,1034,0,0,0,1034,549,0,0,0,287,0,0,0,0,0,0,0,0,636,637,638,0,0,225,226,227,0,0,0,0,0,0,0,0,0,0,0,0,0,0,0,0,740,0,0,0,0,0,0,0,0,0,0,0,0,0,0,0,0,
0,0,0,0,0,0,0,0,0,0,0,0,706,674,676,549,870,0,322,0,0,0,0,0,0,0,0,0,0,0,0,0,0,0,0,0,225,226,227,0,0,0,0,0,0,0,0,0,0,0,0,1031,1032,0,0,0,0,0,0,0,0,0,0,0,0,0,0,0,0,0,
0,0,0,0,0,0,0,0,0,0,0,0,0,0,0,870,902,0,354,0,0,0,0,287,0,0,0,0,0,0,540,0,0,0,0,0,0,0,225,226,227,0,0,0,0,0,0,485,0,0,0,0,0,0,1031,1032,0,0,0,0,0,0,0,0,0,0,0,0,0,0,
0,0,0,0,0,0,0,0,0,0,0,0,0,0,870,902,904,0,0,0,0,0,0,273,0,0,0,0,0,717,572,0,0,0,0,0,0,0,0,0,225,226,227,0,0,0,0,626,0,0,269,0,0,0,0,0,0,0,0,0,0,0,0,0,0,0,0,0,0,0,
0,0,0,0,0,0,0,0,0,0,0,844,845,0,902,904,904,0,0,0,0,0,0,305,0,0,0,0,0,0,0,0,0,0,0,0,0,0,0,0,0,0,0,0,0,634,635,658,0,0,301,284,285,284,285,284,285,284,285,284,285,284,285,284,285,284,285,284,285,0,
0,0,0,0,0,0,0,0,0,0,0,0,0,0,0,0,0,0,0,0,0,0,0,322,0,0,0,0,0,0,0,0,0,0,0,0,726,727,728,729,730,0,0,55,56,57,58,11,0,0,0,316,317,316,317,316,317,316,317,316,317,316,317,316,317,316,317,316,317,0,
0,0,0,0,0,0,0,0,0,0,0,0,0,0,0,0,0,0,0,0,0,0,0,354,0,0,0,0,0,0,0,0,0,0,0,0,758,759,760,761,762,0,0,71,72,73,74,0,0,0,0,0,0,0,0,0,0,0,0,0,0,0,0,0,0,0,0,0,0,0,
0,0,0,0,0,0,0,0,501,0,0,0,0,0,0,0,0,0,0,0,0,0,0,0,0,0,0,0,0,0,0,0,0,0,0,0,790,791,792,793,794,0,0,0,0,192,0,0,0,0,0,0,0,0,0,0,0,0,0,0,0,0,0,0,0,0,0,0,0,0,
0,0,0,0,0,0,0,0,533,0,0,0,0,0,0,0,0,0,0,0,0,0,0,0,0,0,0,0,0,0,0,0,0,0,0,0,822,823,824,825,826,0,0,0,0,0,0,269,0,0,0,0,0,0,0,0,0,0,0,0,0,0,0,0,0,0,0,0,0,0,
0,0,0,0,0,0,0,0,0,0,0,0,0,0,0,0,0,0,0,0,0,0,0,0,0,0,0,0,0,0,0,0,0,0,0,0,854,855,856,857,858,0,0,0,0,0,0,301,0,0,0,0,0,0,0,0,0,0,0,0,0,0,0,0,0,97,98,98,99,0,
0,0,0,0,0,0,0,0,0,0,0,0,0,0,0,0,0,0,0,0,0,0,0,0,0,0,0,0,0,0,0,0,0,0,0,0,0,0,0,0,0,0,0,0,0,0,0,0,0,0,0,0,0,0,870,0,0,0,0,0,0,0,0,0,0,0,0,0,0,0,
819,820,821,0,0,0,0,0,0,0,0,269,0,0,0,0,0,0,0,284,285,284,285,284,285,284,285,284,285,284,285,284,285,284,285,284,285,284,285,284,285,284,285,284,285,284,285,0,0,0,0,0,0,870,902,0,0,0,0,0,0,0,0,0,0,0,0,0,0,0,
851,852,853,634,635,638,0,0,0,0,540,301,0,0,0,0,0,0,0,316,317,316,317,316,317,316,317,316,317,316,317,316,317,316,317,316,317,316,317,316,317,316,317,316,317,316,317,0,0,0,0,870,0,902,0,0,0,0,0,0,0,0,0,0,0,0,0,0,0,0,
0,0,0,0,0,0,0,0,403,0,572,8,0,0,0,0,0,0,0,0,0,0,0,0,0,0,0,0,0,0,0,0,0,0,0,0,0,0,0,0,0,0,0,0,0,0,0,0,0,0,0,902,0,0,0,0,0,0,0,0,0,0,0,0,0,0,0,0,0,0,
0,0,0,0,0,0,636,637,435,0,10,11,541,0,0,0,0,0,0,0,0,0,0,0,0,0,0,0,0,0,0,0,0,0,0,0,0,0,0,0,0,0,0,0,0,0,0,0,0,0,0,0,0,0,0,0,0,0,0,0,0,0,0,0,0,0,0,53,0,0,
0,0,0,0,0,0,0,0,0,0,0,0,0,0,0,0,0,0,0,0,0,0,0,0,0,0,0,0,0,0,0,0,0,0,0,0,0,0,0,0,0,0,0,0,0,0,0,0,0,0,0,0,0,0,0,0,0,0,0,0,0,0,0,0,0,0,53,0,0,0,
0,0,0,0,0,0,0,0,0,0,0,0,0,0,0,0,0,0,0,0,0,0,0,0,0,0,0,0,0,0,0,0,0,0,0,0,0,0,0,0,0,0,0,0,0,0,0,0,0,0,0,53,0,0,53,0,0,0,0,0,0,0,0,0,0,53,0,0,0,0,
0,0,0,0,0,0,0,0,0,0,0,0,0,0,0,0,0,0,0,0,0,0,0,0,0,0,0,0,0,0,0,0,0,0,0,0,0,0,0,0,0,0,0,0,0,0,0,0,0,0,0,0,0,0,0,0,0,0,0,0,0,0,0,0,0,0,0,0,0,0,
0,0,0,0,0,0,0,0,0,0,0,0,0,0,0,0,0,0,0,0,0,0,0,0,0,0,0,0,0,0,0,0,0,0,0,0,0,0,0,0,0,0,0,0,0,0,0,0,0,0,0,0,0,0,0,0,0,0,0,0,0,0,0,0,0,0,0,0,0,0,
0,0,0,0,0,0,0,0,0,0,0,0,0,0,0,0,0,0,0,0,0,0,0,0,0,0,0,0,0,0,0,0,0,0,0,0,0,0,0,0,0,0,0,0,0,0,0,0,0,0,0,0,0,0,0,0,0,0,0,0,0,0,0,0,0,0,0,0,0,0,
0,0,0,0,0,0,0,0,0,0,0,0,0,0,0,0,0,0,0,0,0,0,0,0,0,0,0,55,58,56,56,56,57,58,11,0,0,0,0,0,0,0,0,0,0,0,0,0,0,0,0,0,0,0,0,0,0,0,0,0,0,0,0,0,0,0,0,0,0,0,
0,0,0,0,0,0,0,0,0,0,0,0,0,0,0,0,0,0,0,0,0,0,0,0,0,0,0,0,0,0,71,72,73,74,0,0,0,0,0,0,0,0,0,0,0,0,0,0,0,0,0,0,0,0,0,0,0,0,0,0,0,0,0,0,0,0,0,0,0,0,
0,0,0,0,0,0,0,0,0,0,0,0,0,0,0,0,0,0,0,0,0,0,0,0,0,0,0,0,0,0,0,0,176,0,0,0,0,0,0,0,0,0,0,0,0,0,0,0,0,0,0,0,0,0,0,0,0,0,0,0,0,0,0,0,0,0,0,0,0,0,
0,0,0,0,0,0,0,0,0,0,0,0,0,0,0,0,0,0,0,53,0,0,0,0,0,0,0,0,0,0,0,0,192,0,0,0,0,0,0,0,0,0,0,0,0,0,0,0,0,0,0,0,0,0,0,0,0,0,0,0,0,0,0,0,0,0,0,0,0,0,
0,0,0,0,0,0,0,0,0,0,0,0,0,0,0,0,0,0,53,0,0,53,0,0,0,0,0,0,0,0,0,0,0,0,0,0,0,0,0,0,0,0,0,0,0,0,0,0,0,0,0,0,0,0,0,0,0,0,0,0,0,0,0,0,0,0,0,0,0,0,
0,0,0,0,0,0,0,0,0,0,0,0,0,0,0,0,0,53,0,0,0,0,53,0,0,0,0,0,0,0,0,0,0,0,0,0,0,0,0,0,0,0,0,0,0,0,0,0,0,0,0,0,0,0,0,0,0,0,0,0,0,0,269,0,0,0,0,1,2,3,
0,0,0,0,13,14,0,0,0,0,0,0,0,0,0,53,0,0,0,0,0,0,0,0,0,0,0,0,0,0,0,0,0,0,0,0,0,0,0,0,0,0,0,0,0,0,0,0,0,0,0,0,0,0,0,0,0,0,0,0,0,0,301,0,0,5,6,17,18,19,
0,0,0,0,17,19,0,0,0,0,0,0,0,0,0,0,53,0,0,0,0,0,0,0,0,0,0,0,0,0,0,0,0,0,0,0,0,0,0,0,0,0,0,0,0,0,0,0,0,0,0,0,0,0,0,0,0,0,0,0,0,0,0,0,0,0,0,0,0,0,
0,0,5,6,17,19,0,0,0,0,0,0,0,0,0,0,0,53,0,0,0,0,0,269,75,92,76,76,76,76,109,0,0,0,0,0,0,0,0,0,0,0,0,0,0,0,0,0,0,0,0,0,0,0,0,0,0,0,0,0,0,0,0,0,0,582,583,584,0,0,
0,0,0,0,0,0,0,0,0,0,0,0,0,0,0,0,0,0,0,0,0,0,0,301,75,76,92,76,76,76,76,0,0,0,0,0,0,0,0,0,0,0,0,0,0,0,0,0,0,0,0,0,0,0,0,0,0,0,0,0,0,0,0,0,0,614,615,616,0,0,
0,0,0,0,0,0,0,0,0,0,0,0,55,63,63,63,63,63,63,63,63,0,0,0,11,0,0,0,0,0,0,0,0,0,0,0,0,0,0,0,0,0,0,0,0,0,0,0,0,0,0,0,0,0,0,0,0,0,0,0,0,0,0,501,0,0,0,1034,0,0,
0,0,0,0,0,0,0,0,0,0,0,0,0,0,0,0,0,0,0,0,0,0,0,0,0,0,0,0,0,0,0,0,0,0,0,0,0,0,0,0,0,0,0,0,0,0,0,0,0,0,0,0,0,0,0,0,0,0,0,0,0,0,501,533,0,0,288,1034,0,0,
0,0,0,0,0,0,0,0,0,0,0,0,0,0,0,0,0,0,0,0,0,0,24,0,0,0,0,0,0,0,726,727,728,729,730,0,0,0,0,0,0,0,0,0,0,0,0,0,0,0,0,0,0,0,0,0,0,0,0,0,0,0,533,0,0,0,0,1034,0,0,
0,0,0,0,0,0,0,0,0,0,0,0,0,0,0,0,0,0,0,0,0,0,0,0,0,0,0,0,0,0,758,759,760,761,762,0,0,0,0,0,0,0,0,0,0,0,0,0,0,0,0,0,0,0,0,0,0,0,0,0,0,0,0,0,0,0,0,1034,0,0,
0,0,0,0,0,0,0,0,0,0,0,0,0,0,0,0,0,0,0,0,0,0,0,0,0,0,0,0,0,0,790,791,792,793,794,0,0,781,782,783,0,0,0,0,0,0,0,0,0,0,717,718,719,0,0,269,0,0,0,0,0,0,0,0,258,259,0,549,0,0,
0,0,0,0,0,0,0,0,0,0,0,0,0,0,0,0,0,0,0,0,0,0,0,0,818,819,820,821,0,0,822,823,824,825,826,0,0,0,0,0,0,0,717,718,719,0,0,0,0,0,0,0,0,0,0,301,0,0,0,0,0,0,258,259,290,291,0,0,0,0,
0,0,0,0,0,0,0,0,0,0,0,0,0,0,0,0,0,0,0,0,0,0,0,0,850,851,852,853,0,0,854,855,856,857,858,0,0,0,0,0,0,0,0,0,0,0,0,0,0,0,0,0,0,0,0,0,0,0,0,0,0,0,290,291,290,291,0,0,636,637,
0,0,0,0,0,0,0,0,0,0,0,0,0,0,0,0,0,0,0,0,0,0,0,0,0,0,0,0,0,0,0,0,0,0,0,0,0,0,0,0,0,0,0,0,0,0,0,0,0,0,0,0,0,0,0,0,0,0,0,0,0,0,0,0,0,0,0,0,0,0,
0,0,0,0,0,0,0,0,0,0,0,0,0,0,0,0,0,0,0,0,0,0,0,0,0,0,0,0,0,0,0,0,0,0,0,0,0,0,0,0,0,0,0,0,0,0,0,0,0,0,0,0,0,0,0,0,0,0,0,0,0,0,0,0,0,0,0,0,0,0,
0,0,0,0,0,0,0,0,0,0,0,0,0,0,0,0,0,0,0,0,0,0,0,0,0,0,0,0,0,0,0,0,0,0,0,0,0,0,0,0,0,0,0,0,0,0,0,0,0,0,0,0,0,0,0,0,0,0,0,0,0,0,0,0,0,0,0,0,0,0,
0,636,637,636,637,0,0,0,0,0,0,0,0,0,0,0,0,0,0,0,0,0,0,0,0,0,0,0,0,0,0,0,0,0,0,0,0,0,0,0,0,0,0,0,0,0,0,0,0,0,0,0,0,0,0,0,0,0,0,0,0,0,0,0,0,0,0,0,0,0
</data>
 </layer>
 <layer id="7" name="picos" width="70" height="50">
  <data encoding="csv">
0,0,0,0,0,0,0,0,0,0,0,0,0,0,0,0,0,0,0,0,0,0,0,0,0,0,0,0,0,0,0,0,0,0,0,0,0,0,0,0,0,0,0,0,0,0,0,0,0,0,0,0,0,0,0,0,0,0,0,0,0,0,0,0,0,0,0,0,0,0,
0,0,0,0,0,0,0,0,0,0,0,0,0,0,0,0,0,0,0,0,0,0,0,0,0,0,0,0,0,0,0,0,0,0,0,0,0,0,0,0,0,0,0,0,0,0,0,0,0,0,0,0,0,0,0,0,0,0,0,0,0,0,0,0,0,0,0,0,0,0,
0,0,0,0,0,0,0,0,0,0,0,0,0,0,0,0,0,0,0,0,0,0,0,0,0,0,0,0,0,0,0,0,0,0,0,0,0,0,0,0,0,0,0,0,0,0,0,0,0,0,0,0,0,0,0,0,0,0,0,0,0,0,0,0,0,0,0,0,0,0,
0,0,0,0,0,0,0,0,0,0,0,0,0,0,0,0,0,0,0,0,0,0,0,0,0,0,0,0,0,0,0,0,0,0,0,0,0,0,0,0,0,0,0,0,0,0,0,0,0,0,0,0,0,0,0,0,0,0,0,0,0,0,0,0,0,0,0,0,0,0,
0,0,0,0,0,0,0,0,0,0,0,0,0,0,0,0,0,0,0,0,0,0,0,0,0,0,0,0,0,0,0,0,0,0,0,0,0,0,0,0,0,0,0,0,0,0,0,0,0,0,0,0,0,0,0,0,0,0,0,0,0,0,0,0,0,0,0,0,0,0,
0,0,0,0,0,0,0,0,0,0,0,0,0,0,0,0,0,0,0,0,0,0,0,0,0,0,0,0,0,0,0,0,0,0,0,0,0,0,0,0,0,0,0,0,0,0,0,0,0,0,0,0,0,0,0,0,0,0,0,0,0,0,0,0,0,0,0,0,0,0,
0,0,0,0,0,0,0,0,0,0,0,0,0,0,0,0,0,0,0,0,0,0,0,0,0,0,0,0,0,0,0,0,0,0,0,0,0,0,0,0,0,0,0,0,0,0,0,0,0,0,0,0,0,0,0,0,0,0,0,0,0,0,0,0,0,0,0,0,0,0,
0,0,0,0,0,0,0,0,0,0,0,0,0,0,0,0,0,0,0,0,0,0,0,0,0,0,0,0,0,0,0,0,0,0,0,0,0,0,0,0,0,0,0,0,0,0,0,0,0,0,0,0,0,0,0,0,0,0,0,0,0,0,0,0,0,0,0,0,0,0,
0,0,0,0,0,0,0,0,0,0,0,0,0,0,0,0,0,0,0,0,0,0,0,0,0,0,0,0,0,0,0,0,0,0,0,0,0,0,0,0,0,0,0,0,0,0,0,0,0,0,0,0,0,0,0,0,0,0,0,0,0,0,0,0,0,0,0,0,0,0,
0,0,0,0,0,0,0,0,0,0,0,0,0,0,0,0,0,0,0,0,0,0,0,0,0,0,0,0,0,0,0,0,0,0,0,0,0,0,0,0,0,0,0,0,0,0,0,0,0,0,0,0,0,0,0,0,0,0,0,0,0,0,0,0,0,0,0,0,0,0,
0,0,0,0,0,0,0,0,0,0,0,0,0,0,0,0,0,0,0,0,0,0,0,0,0,0,0,0,0,0,0,0,0,0,0,0,0,0,0,0,0,0,0,0,0,0,0,0,0,0,0,0,0,0,0,0,0,0,0,0,0,0,0,0,0,0,0,0,0,0,
0,0,0,0,0,0,0,0,0,0,0,0,0,0,0,0,0,0,0,0,0,0,0,0,0,0,0,0,0,0,0,0,0,0,0,0,0,0,0,0,0,0,0,0,0,0,0,0,0,0,0,0,0,0,0,0,0,0,0,0,0,0,0,0,0,0,0,0,0,0,
0,0,0,0,0,0,0,0,0,0,0,0,0,0,0,0,0,0,0,0,0,0,0,0,0,0,0,0,0,0,0,0,0,0,0,0,0,0,0,0,0,0,0,0,0,0,0,0,0,0,0,0,0,0,0,0,0,0,0,0,0,0,0,0,0,0,0,0,0,0,
0,0,0,0,0,0,0,0,0,0,0,0,0,0,0,0,0,0,0,0,0,0,0,0,0,0,0,0,0,0,0,0,0,0,0,0,0,0,0,0,0,0,0,0,0,0,0,0,0,0,0,0,0,0,0,0,0,0,0,0,0,0,0,0,0,0,0,0,0,0,
0,0,0,0,0,0,0,0,0,0,0,0,0,0,0,0,0,0,0,0,0,0,0,0,0,0,0,0,0,0,0,0,0,0,0,0,0,0,0,0,0,0,0,0,0,0,0,0,0,0,0,0,0,0,0,0,0,0,0,0,0,0,0,0,0,0,0,0,0,0,
0,0,0,0,0,0,0,0,0,0,0,0,0,0,0,0,0,0,0,0,0,0,0,0,0,0,0,0,0,0,0,0,0,0,0,0,0,0,0,0,0,0,0,0,0,0,0,0,0,0,0,0,0,0,0,0,0,0,0,0,0,0,0,0,0,0,0,0,0,0,
0,0,0,0,0,0,0,0,0,0,0,0,0,0,0,0,0,0,0,0,0,0,0,0,0,0,0,0,0,0,0,0,0,0,0,0,0,0,0,0,0,0,0,0,0,0,0,0,0,0,0,0,0,0,0,0,0,0,0,0,0,0,0,0,0,0,0,0,0,0,
0,0,0,0,0,0,0,0,0,0,0,0,0,0,0,0,0,0,0,0,0,0,0,0,0,0,0,0,0,0,0,0,0,0,0,0,0,0,0,0,0,0,0,0,0,0,0,0,0,0,0,0,0,0,0,0,0,0,0,0,0,0,0,0,0,0,0,0,0,0,
0,0,0,0,0,0,0,0,0,0,0,0,0,0,0,0,0,0,0,0,0,0,0,0,0,0,0,0,0,0,0,0,0,0,0,0,0,0,0,0,0,0,0,0,0,0,0,0,0,0,0,0,0,0,0,0,0,0,0,0,0,0,0,0,0,0,0,0,0,0,
0,0,0,0,0,0,0,0,0,0,0,0,0,0,0,0,0,0,0,0,0,0,0,0,0,0,0,0,0,0,0,0,0,0,0,0,0,0,0,0,0,0,0,0,0,0,0,0,0,0,0,0,0,0,0,0,0,0,0,0,0,0,0,0,0,0,0,0,0,0,
0,0,0,0,0,0,0,0,0,0,0,0,0,0,0,0,0,0,0,0,0,0,0,0,0,0,0,0,0,0,0,0,0,0,0,0,0,0,0,0,0,0,0,0,0,0,0,0,0,0,0,0,0,0,0,0,0,0,0,0,0,0,0,0,0,0,0,0,0,0,
0,0,0,0,0,0,0,0,0,0,0,0,0,0,0,0,0,0,0,0,0,0,0,0,0,0,0,0,0,0,0,0,0,0,0,0,0,0,0,0,0,0,0,0,0,0,0,0,0,0,0,0,0,0,0,0,0,0,0,0,0,0,0,0,0,0,0,0,0,0,
0,0,0,0,0,0,0,0,0,0,0,0,0,0,0,0,0,0,0,0,0,0,0,0,0,0,0,0,0,0,0,0,0,0,0,0,0,0,0,0,0,0,0,0,0,0,0,0,0,0,0,0,0,0,0,0,0,0,0,0,0,0,0,0,0,0,0,0,0,0,
0,0,0,0,0,0,0,0,0,0,0,0,0,0,0,0,0,0,0,0,0,0,0,0,0,0,0,0,0,0,0,0,0,0,0,0,0,0,0,0,0,0,0,0,0,0,0,0,0,0,0,0,0,0,0,0,0,0,0,0,0,0,0,0,0,0,0,0,0,0,
0,0,0,0,0,0,0,0,0,0,0,0,0,0,0,0,0,0,0,0,0,0,0,0,0,0,0,0,0,0,0,0,0,0,0,0,0,0,0,0,0,0,0,0,0,0,0,0,0,0,0,0,0,0,0,0,0,0,0,0,0,0,0,0,0,0,0,0,0,0,
0,0,0,0,0,0,0,0,0,0,0,0,0,0,0,0,0,0,0,0,0,0,0,0,0,0,0,0,0,0,0,0,0,0,0,0,0,0,0,0,0,0,0,0,0,0,0,0,0,0,0,0,0,0,0,0,0,0,0,0,0,0,0,0,0,0,0,0,0,0,
0,0,0,0,0,0,0,0,0,0,0,0,0,0,0,0,0,0,0,0,0,0,0,0,0,0,0,0,0,0,0,0,0,0,0,0,0,0,0,0,0,0,0,0,0,0,0,0,0,0,0,0,0,0,0,0,0,0,0,0,0,0,0,0,0,0,0,0,0,0,
0,0,0,0,0,0,0,0,0,0,0,0,0,0,0,0,0,0,0,0,0,0,0,0,0,0,0,0,0,0,0,0,0,0,0,0,0,0,0,0,0,0,0,0,0,0,0,0,0,0,0,0,0,0,0,0,0,0,0,0,0,0,0,0,0,0,0,0,0,0,
0,0,0,0,0,0,0,0,0,0,0,0,0,0,0,0,0,0,0,0,0,0,0,0,0,0,0,0,0,0,0,0,0,0,0,0,0,0,0,0,0,0,0,0,0,0,0,0,0,0,0,0,0,0,0,0,0,0,0,0,0,0,0,0,0,0,0,0,0,0,
0,0,0,0,0,0,0,0,0,0,0,0,0,0,0,0,0,0,0,0,0,0,0,0,0,0,0,0,0,0,0,0,0,0,0,0,0,0,0,0,0,0,0,0,0,0,0,0,0,0,0,0,0,0,0,0,0,0,0,0,0,0,0,0,0,0,0,0,0,0,
0,0,0,0,0,0,0,0,0,0,0,0,0,0,0,0,0,0,0,0,0,0,0,0,0,0,0,0,0,0,0,0,0,0,0,0,0,0,0,0,0,0,0,0,0,0,0,0,0,0,0,0,0,0,0,0,0,0,0,0,0,0,0,0,0,0,0,0,0,0,
0,0,0,0,0,0,0,0,0,0,0,0,0,0,0,0,0,0,0,0,0,0,0,0,0,0,0,0,0,0,0,0,0,0,0,0,0,0,0,0,0,0,0,0,0,0,0,0,0,0,0,0,0,0,0,0,0,0,0,0,0,0,0,0,0,53,0,0,0,0,
2684354956,2684354924,2684354892,0,0,1034,0,0,0,0,0,0,0,0,0,0,0,0,0,0,0,0,0,0,0,0,0,0,0,0,0,0,0,0,0,0,0,0,0,0,0,0,0,0,0,0,0,0,0,0,0,0,0,0,0,0,0,0,0,0,0,0,0,0,0,0,53,0,0,0,
2684354957,2684354925,2684354893,0,71,1034,0,0,0,0,0,0,0,0,0,0,0,0,0,0,0,0,0,0,0,0,0,0,0,0,0,0,0,0,0,0,0,0,0,0,0,0,0,0,0,0,0,0,0,0,0,0,0,0,0,0,0,0,0,0,0,0,0,0,0,0,0,0,13,14,
322,0,0,0,0,0,0,0,0,0,0,0,0,0,0,0,0,0,0,0,0,0,0,0,0,0,0,0,0,0,0,0,0,0,0,0,0,0,0,0,0,0,0,0,0,0,0,0,0,0,0,0,0,0,0,0,0,0,0,0,0,0,0,0,0,0,0,0,0,0,
354,0,0,0,0,0,0,0,0,0,0,0,0,0,0,0,0,0,0,0,0,0,0,0,0,0,0,0,0,0,0,0,0,0,0,0,0,0,0,0,0,0,0,0,0,0,0,0,0,0,0,0,0,0,0,0,0,0,0,0,0,0,0,0,0,0,0,0,13,14,
1034,322,0,0,0,0,0,269,0,0,0,0,0,0,0,0,0,0,0,0,0,0,0,0,0,0,0,0,0,0,0,0,0,0,0,0,0,0,0,0,0,0,0,0,0,0,0,0,0,0,0,0,0,0,0,0,0,0,0,0,0,0,0,0,0,0,0,0,0,0,
1034,354,0,0,0,0,0,301,0,0,0,0,0,0,0,0,0,0,0,0,0,0,0,0,0,0,0,0,0,0,0,0,0,0,0,0,0,0,0,0,0,0,0,0,0,0,0,0,0,0,0,0,0,0,0,0,0,0,0,0,0,0,0,0,0,0,0,0,0,0,
1034,0,0,0,0,0,0,0,0,0,0,0,0,0,0,0,0,0,0,0,0,0,0,0,0,0,0,0,0,0,0,0,0,0,0,0,0,0,0,0,0,0,0,0,0,0,0,0,0,0,0,0,0,0,0,0,0,0,0,0,0,0,0,0,0,0,0,0,0,0,
1034,0,0,0,0,0,0,0,0,0,0,0,0,0,0,0,0,0,0,0,0,0,0,0,0,0,0,0,0,0,0,0,0,0,0,0,0,0,0,0,0,0,0,0,0,0,0,0,0,0,0,0,0,0,0,0,0,0,0,0,0,378,0,0,0,0,0,0,0,0,
549,0,0,0,0,0,0,0,0,0,0,0,0,0,0,0,0,0,0,0,0,0,0,0,0,0,0,0,0,0,0,0,0,0,0,0,0,0,0,0,0,0,0,0,0,0,0,0,0,0,0,0,0,0,378,378,378,378,378,378,378,0,0,0,0,0,0,0,0,0,
0,0,0,0,0,0,0,0,0,0,0,0,0,0,0,0,0,0,0,0,0,0,0,0,0,0,0,0,0,0,0,0,0,0,0,0,0,0,0,0,0,0,0,0,0,0,0,0,0,0,0,0,0,0,0,0,0,0,0,0,0,0,0,0,0,0,0,0,0,0,
0,0,0,0,0,0,0,0,0,0,0,0,0,0,0,0,0,0,0,0,0,0,0,0,0,0,0,0,0,0,0,0,0,0,0,0,0,0,0,0,0,0,0,0,0,0,0,0,0,0,0,0,0,0,0,0,0,0,0,0,0,0,0,0,0,0,0,0,0,0,
0,0,0,0,0,0,0,0,0,0,0,0,0,378,0,378,0,0,0,0,0,0,0,0,0,0,0,0,0,0,0,0,0,0,0,0,378,0,0,0,0,0,0,0,0,0,0,0,0,0,0,0,0,0,0,0,0,0,0,0,0,0,0,0,0,0,0,0,0,0,
0,0,0,0,0,0,0,0,0,0,0,0,0,0,0,0,0,0,0,378,0,0,0,0,0,0,0,0,0,0,0,0,0,0,0,0,0,0,0,0,0,0,0,0,378,378,0,0,0,0,0,0,0,0,0,0,0,0,0,0,0,0,0,0,0,0,0,0,0,0,
0,0,0,0,0,0,0,0,0,378,0,0,0,0,0,0,0,0,0,0,0,0,0,0,378,0,0,378,0,0,378,0,0,0,0,0,0,0,0,0,0,0,0,0,0,0,0,0,0,0,0,0,0,0,0,0,0,0,0,0,0,0,0,378,378,378,378,378,378,378,
0,0,0,0,0,0,0,0,0,0,0,0,0,0,0,0,0,0,0,0,0,0,0,0,0,0,0,0,0,0,0,0,0,0,0,0,0,0,0,0,0,0,0,0,0,0,0,0,0,0,0,0,0,0,0,0,0,0,0,0,0,0,0,0,0,0,0,0,0,0,
0,0,0,0,0,0,284,285,284,285,284,285,284,285,284,285,284,285,284,285,284,285,0,0,0,0,0,0,0,0,0,0,0,0,0,0,0,0,0,0,0,0,0,0,0,0,0,0,0,0,0,0,0,0,0,0,0,0,0,0,0,0,0,0,0,0,0,0,0,0,
0,0,0,0,0,0,0,0,0,0,0,0,815,816,817,0,0,0,0,0,0,0,0,0,0,0,0,0,0,0,0,0,0,0,0,0,0,0,0,0,0,0,0,0,0,0,0,0,0,0,0,0,0,0,0,0,0,0,0,0,0,0,0,0,0,0,0,0,0,0,
0,0,636,637,636,637,0,0,844,845,0,0,847,848,849,0,0,0,750,0,0,0,0,0,0,0,0,0,0,0,0,0,0,0,0,0,0,0,0,0,0,0,0,0,0,0,0,0,0,0,0,0,0,0,0,0,0,0,0,0,0,0,0,0,0,0,0,0,0,0
</data>
 </layer>
 <objectgroup id="3" name="piso">
  <object id="2" x="0.5" y="145" width="129" height="14.5"/>
  <object id="3" x="187.5" y="146.833" width="35.5" height="12.1667"/>
  <object id="4" x="-0.666667" y="2" width="13.3333" height="143.333"/>
  <object id="5" x="90" y="95.6667" width="43" height="11.6667"/>
  <object id="26" x="569" y="40" width="5" height="31"/>
  <object id="27" x="574" y="65.5" width="158.5" height="7"/>
  <object id="28" x="726.5" y="72" width="7.5" height="30.5"/>
  <object id="29" x="734" y="95.5" width="63.5" height="10"/>
  <object id="30" x="789" y="106" width="10" height="32"/>
  <object id="31" x="799.5" y="127.5" width="63" height="11.5"/>
  <object id="32" x="852" y="139" width="10" height="23.5"/>
  <object id="33" x="862.5" y="159" width="62.5" height="11"/>
  <object id="34" x="911.5" y="170" width="13.5" height="24"/>
  <object id="35" x="912" y="194" width="78.5" height="11.5"/>
  <object id="36" x="978" y="203" width="12.5" height="29"/>
  <object id="37" x="991.333" y="224" width="127" height="15.3333"/>
  <object id="42" x="384" y="123.5" width="129" height="4.5"/>
  <object id="43" x="1376" y="445.333" width="156" height="2.66667"/>
  <object id="44" x="188.5" y="158.333" width="2.5" height="130"/>
  <object id="45" x="128" y="159.667" width="2.33333" height="352.167"/>
  <object id="46" x="192" y="286" width="158.667" height="4.66667"/>
  <object id="47" x="352.667" y="224.667" width="4" height="67.3333"/>
  <object id="48" x="185.334" y="405.333" width="4" height="106.667"/>
  <object id="49" x="189.333" y="405" width="162" height="7.33333"/>
  <object id="50" x="351.333" y="405" width="8" height="35.3333"/>
  <object id="51" x="354" y="440.667" width="221.333" height="2"/>
  <object id="52" x="572.667" y="383.333" width="4" height="62.6667"/>
  <object id="53" x="448" y="407.25" width="31.25" height="37.75"/>
  <object id="54" x="479.75" y="375.5" width="31" height="69.75"/>
  <object id="55" x="513.5" y="343.25" width="28" height="102.5"/>
  <object id="56" x="383" y="319.5" width="96.5" height="8"/>
  <object id="57" x="358.5" y="225" width="215" height="6"/>
  <object id="58" x="571.5" y="230.5" width="2" height="60.5"/>
  <object id="59" x="573.5" y="287.5" width="128.5" height="7.5"/>
  <object id="60" x="698.5" y="296.5" width="3.5" height="57.5"/>
  <object id="61" x="703" y="352" width="94.5" height="11"/>
  <object id="62" x="795" y="364" width="3" height="49"/>
  <object id="67" x="711" y="504.5" width="217.5" height="6.5"/>
  <object id="68" x="796.5" y="414" width="131.5" height="3.5"/>
  <object id="69" x="0" y="511.5" width="129" height="3"/>
  <object id="70" x="185.5" y="511" width="134.5" height="5"/>
  <object id="71" x="1.33333" y="694.667" width="203" height="8"/>
  <object id="73" x="314" y="515.5" width="5.5" height="92.5"/>
  <object id="74" x="319.5" y="602.667" width="63.5" height="10.5"/>
  <object id="78" x="192.25" y="702.5" width="11.75" height="64"/>
  <object id="79" x="204.25" y="761.75" width="116.5" height="5.5"/>
  <object id="80" x="321.25" y="733.167" width="60.25" height="31.75"/>
  <object id="81" x="352.25" y="765.25" width="58.75" height="32.25"/>
  <object id="82" x="384.25" y="797.5" width="58.25" height="30.75"/>
  <object id="86" x="60.3333" y="603.333" width="37.3333" height="5.66667"/>
  <object id="87" x="157.667" y="634.333" width="36.3333" height="5.66667"/>
  <object id="88" x="254.667" y="667" width="37.6667" height="4.33333"/>
  <object id="92" x="448.25" y="861.875" width="31.25" height="2.25"/>
  <object id="93" x="511.5" y="893" width="32.25" height="3.25"/>
  <object id="94" x="576" y="860.5" width="31.75" height="4"/>
  <object id="95" x="639.25" y="891.75" width="31.5" height="4"/>
  <object id="96" x="704" y="859.5" width="31.5" height="4.25"/>
  <object id="97" x="767" y="891.25" width="32" height="5"/>
  <object id="99" x="616.334" y="633.333" width="50.3333" height="27.3333"/>
  <object id="100" x="736.333" y="634.666" width="62.6667" height="27"/>
  <object id="101" x="800" y="602.667" width="63.3333" height="59.3333"/>
  <object id="106" x="897.833" y="599.5" width="122" height="28.5"/>
  <object id="107" x="1022.83" y="570.5" width="95.5" height="31.5"/>
  <object id="108" x="1120.5" y="603" width="158.5" height="30"/>
  <object id="109" x="1291.17" y="635.667" width="47" height="27"/>
  <object id="110" x="1344.67" y="599.833" width="95.5" height="60"/>
  <object id="111" x="1280.67" y="155" width="284.667" height="30.6667"/>
  <object id="116" x="1311.33" y="91.6667" width="160" height="8"/>
  <object id="117" x="1696.67" y="44.6667" width="63.3333" height="8.66667"/>
  <object id="118" x="1824" y="74.6667" width="64.6667" height="9.33333"/>
  <object id="119" x="1726.67" y="200.667" width="64.6667" height="14"/>
  <object id="120" x="1826" y="235.333" width="62" height="9.33333"/>
  <object id="121" x="1726.67" y="264" width="64.6667" height="12"/>
  <object id="122" x="1631.33" y="332" width="64.6667" height="8.66667"/>
  <object id="123" x="1730.67" y="364" width="63.3333" height="10.6667"/>
  <object id="124" x="1600" y="-2.66667" width="32" height="372"/>
  <object id="125" x="2206.67" y="1.33333" width="34.6667" height="478.667"/>
  <object id="126" x="1646" y="128.5" width="101" height="17"/>
  <object id="127" x="1834" y="128" width="372.5" height="32.5"/>
  <object id="128" x="1771" y="287" width="211" height="34"/>
  <object id="129" x="2059" y="287" width="142" height="32"/>
  <object id="130" x="1674" y="414" width="247" height="23"/>
  <object id="131" x="2029" y="387" width="114" height="27"/>
  <object id="132" x="1996" y="415" width="78" height="29"/>
  <object id="133" x="416" y="666.667" width="204" height="10"/>
  <object id="134" x="1534.67" y="832" width="704" height="8"/>
  <object id="135" x="1678.67" y="756.667" width="36" height="75"/>
  <object id="136" x="1503.67" y="601.333" width="131" height="14"/>
  <object id="137" x="1628" y="620" width="8" height="116"/>
  <object id="138" x="1408" y="732" width="228" height="5"/>
  <object id="139" x="1404" y="859.5" width="37.5" height="5"/>
  <object id="140" x="1310" y="954.5" width="35.5" height="5.5"/>
  <object id="141" x="1213.5" y="1050" width="37" height="6"/>
  <object id="142" x="1119" y="1146.5" width="34.5" height="6"/>
  <object id="147" x="1534.5" y="840" width="7.5" height="23"/>
  <object id="148" x="1503" y="856.5" width="32.5" height="35"/>
  <object id="149" x="1468.5" y="888.667" width="35.5" height="32"/>
  <object id="150" x="1438.5" y="921" width="35" height="33"/>
  <object id="151" x="1408" y="953.5" width="32.5" height="33.5"/>
  <object id="152" x="1374" y="984.667" width="35" height="33.5"/>
  <object id="153" x="1342.83" y="1016.5" width="32.5" height="33.5"/>
  <object id="154" x="1311" y="1049" width="34.5" height="33.5"/>
  <object id="155" x="1280" y="1079" width="30.5" height="31.5"/>
  <object id="156" x="1246.5" y="1111" width="33" height="33.5"/>
  <object id="157" x="1213" y="1144" width="36" height="33.5"/>
  <object id="158" x="2080.67" y="800.667" width="30.6667" height="29.3333"/>
  <object id="159" x="2112" y="768" width="30" height="30"/>
  <object id="160" x="2144" y="738.667" width="30" height="28"/>
  <object id="161" x="2173.33" y="798.667" width="37.3333" height="12"/>
  <object id="162" x="2012" y="736" width="39.3333" height="11.3333"/>
  <object id="163" x="2106" y="670" width="41.3333" height="11.3333"/>
  <object id="164" x="2010" y="637.333" width="42.6667" height="13.3333"/>
  <object id="165" x="2106" y="575.333" width="74.6667" height="12.6667"/>
  <object id="166" x="1501" y="542" width="258" height="13"/>
  <object id="167" x="1758" y="554" width="7" height="183"/>
  <object id="168" x="1765" y="728" width="188" height="9"/>
  <object id="169" x="1943" y="514" width="10" height="212"/>
  <object id="170" x="1954" y="513" width="287" height="10"/>
  <object id="171" x="2229" y="523" width="11" height="310"/>
  <object id="172" x="1635.5" y="696" width="28.5" height="7"/>
  <object id="173" x="1696" y="662.5" width="32" height="8"/>
  <object id="174" x="1728" y="630.5" width="30.5" height="8"/>
  <object id="175" x="1728" y="800" width="32" height="30"/>
  <object id="176" x="1631" y="799" width="34" height="34"/>
  <object id="177" x="1407.5" y="737" width="5.5" height="42.5"/>
  <object id="178" x="1376" y="768.5" width="31" height="11"/>
  <object id="179" x="1375" y="778.5" width="8.5" height="30.5"/>
  <object id="180" x="1345" y="800.5" width="30.5" height="11"/>
  <object id="181" x="1344.5" y="811" width="9" height="32.5"/>
  <object id="182" x="1313" y="831.5" width="31.5" height="13.5"/>
  <object id="183" x="1312.5" y="843" width="7.5" height="28"/>
  <object id="184" x="1280.5" y="864.5" width="34" height="8"/>
  <object id="185" x="1280" y="873.5" width="6.5" height="31.5"/>
  <object id="186" x="1248.5" y="896.5" width="32" height="9"/>
  <object id="187" x="1248.5" y="905.5" width="8" height="31"/>
  <object id="188" x="1215.5" y="929" width="32" height="9.5"/>
  <object id="189" x="1215" y="937.5" width="5.5" height="33.5"/>
  <object id="190" x="1184" y="960.5" width="30" height="12.5"/>
  <object id="191" x="1184" y="970.5" width="5.5" height="29.5"/>
  <object id="192" x="1152" y="992" width="32" height="9.5"/>
  <object id="193" x="1152" y="1001.5" width="7" height="32"/>
  <object id="194" x="1120" y="1023" width="35" height="11"/>
  <object id="195" x="1120.5" y="1031.5" width="6.5" height="33"/>
  <object id="196" x="1089" y="1055" width="31.5" height="10.5"/>
  <object id="197" x="1087.5" y="1064.5" width="7" height="28.5"/>
  <object id="198" x="1057.5" y="1088.5" width="29.5" height="9"/>
  <object id="199" x="1057" y="1098" width="4.66667" height="23.3333"/>
  <object id="201" x="1024" y="1120" width="34" height="28"/>
  <object id="202" x="640" y="1148" width="386" height="7.33333"/>
  <object id="203" x="607.333" y="1020" width="31.3333" height="30.6667"/>
  <object id="204" x="672.667" y="1051.67" width="30.6667" height="28.6667"/>
  <object id="205" x="704.667" y="1084" width="30.6667" height="30.6667"/>
  <object id="206" x="576.667" y="1052" width="30.6667" height="29.3333"/>
  <object id="208" x="544.667" y="1083.67" width="31.3333" height="30"/>
  <object id="209" x="479.333" y="1116" width="31.3333" height="30"/>
  <object id="210" x="512.667" y="1148" width="29.3333" height="31.3333"/>
  <object id="211" x="542.667" y="1180" width="30.6667" height="31.3333"/>
  <object id="212" x="608" y="1210.67" width="32.6667" height="32.6667"/>
  <object id="213" x="385" y="1249" width="411" height="9"/>
  <object id="214" x="1179" y="1178" width="33" height="31"/>
  <object id="215" x="1151" y="1209" width="34" height="33"/>
  <object id="216" x="1120" y="1241" width="31" height="32"/>
  <object id="217" x="797" y="1272" width="322" height="6"/>
  <object id="218" x="788" y="1257.5" width="7" height="28"/>
  <object id="221" x="574.5" y="150.833" width="64.6667" height="32.3333"/>
  <object id="222" x="639.667" y="184.667" width="64.3333" height="34"/>
  <object id="223" x="705" y="215.167" width="63.3333" height="34"/>
  <object id="224" x="767.167" y="248" width="65" height="32.3333"/>
  <object id="225" x="832.833" y="278.5" width="63.6667" height="33.3333"/>
  <object id="226" x="895.5" y="309" width="191.5" height="10"/>
  <object id="227" x="1087.25" y="282" width="95.5" height="30.5"/>
  <object id="230" x="576.667" y="375" width="64" height="64.6667"/>
  <object id="231" x="640.667" y="435.667" width="68" height="62"/>
  <object id="232" x="862" y="921" width="255" height="17"/>
  <object id="233" x="0.666667" y="1023.33" width="252" height="12.6667"/>
  <object id="236" x="1.33333" y="1151.33" width="94" height="13.3333"/>
  <object id="237" x="64" y="1184.67" width="62" height="15.3333"/>
  <object id="238" x="139.333" y="1117.33" width="48" height="26"/>
  <object id="239" x="0" y="1216" width="254" height="11.3333"/>
  <object id="240" x="318.5" y="1279.5" width="32.5" height="31.5"/>
  <object id="241" x="288" y="1312" width="33" height="32"/>
  <object id="242" x="256" y="1344.5" width="32.5" height="31.5"/>
  <object id="243" x="222.5" y="1375.5" width="33.5" height="32"/>
  <object id="244" x="159.5" y="1440" width="32.5" height="31.5"/>
  <object id="245" x="1601.33" y="443.667" width="46.6667" height="12.6667"/>
  <object id="246" x="351.5" y="698.333" width="32" height="34"/>
  <object id="247" x="12.6667" y="1535.33" width="27.3333" height="13.3333"/>
  <object id="248" x="43.3333" y="1504" width="142" height="19.3333"/>
  <object id="249" x="180" y="1534.67" width="518.667" height="29.3333"/>
  <object id="250" x="224" y="1472.67" width="156" height="30.6667"/>
  <object id="251" x="386" y="1406.67" width="156.667" height="30"/>
  <object id="252" x="576.667" y="1440" width="158" height="29.3333"/>
  <object id="254" x="704" y="1470" width="350" height="34"/>
  <object id="255" x="1121" y="1408" width="158" height="33"/>
  <object id="256" x="1344" y="1439" width="160" height="34"/>
  <object id="257" x="1567" y="1409" width="158" height="31"/>
  <object id="258" x="1631" y="1345" width="34" height="30"/>
  <object id="259" x="1663" y="1314" width="32" height="29"/>
  <object id="260" x="1728" y="1248" width="32" height="31"/>
  <object id="261" x="1790" y="1216" width="33" height="33"/>
  <object id="262" x="1856" y="1183" width="31" height="33"/>
  <object id="264" x="1727" y="1442" width="222" height="29"/>
  <object id="265" x="1920" y="1470" width="315" height="36"/>
  <object id="266" x="1993.67" y="1426.33" width="45.6667" height="44"/>
  <object id="267" x="2058" y="1395.67" width="45" height="74.6667"/>
  <object id="268" x="2199" y="1281" width="7" height="187"/>
  <object id="269" x="2175.33" y="1281.33" width="23.3333" height="6.66667"/>
  <object id="270" x="2169.33" y="1252" width="4.66667" height="35.3333"/>
  <object id="271" x="1984.67" y="1246.67" width="182.667" height="14.6667"/>
  <object id="272" x="1822.67" y="1056" width="36" height="32"/>
  <object id="273" x="1918.67" y="1149.33" width="317.333" height="17.3333"/>
  <object id="274" x="2080" y="1119.33" width="64.6667" height="30"/>
  <object id="275" x="2144" y="1090.67" width="94.6667" height="58.6667"/>
  <object id="276" x="2188.67" y="1059.33" width="44" height="28"/>
  <object id="277" x="2112" y="1024" width="33.3333" height="31.3333"/>
  <object id="278" x="2079.33" y="992" width="32.6667" height="31.3333"/>
  <object id="279" x="1889.33" y="1055.33" width="163.333" height="9.33333"/>
  <object id="280" x="2048" y="990.667" width="4.66667" height="65.3333"/>
  <object id="281" x="1694" y="984" width="356" height="10.6667"/>
  <object id="282" x="1693.33" y="994" width="5.33333" height="220.667"/>
  <object id="283" x="1625.33" y="990.667" width="5.33333" height="161.333"/>
  <object id="284" x="1567.33" y="988" width="58" height="4.66667"/>
  <object id="285" x="1562" y="868" width="4.66667" height="118.667"/>
  <object id="286" x="1568" y="865" width="574" height="11"/>
  <object id="287" x="2132" y="879" width="9" height="47"/>
  <object id="288" x="2137" y="929" width="105" height="12"/>
  <object id="289" x="224" y="116" width="96" height="64"/>
  <object id="290" x="318.667" y="178" width="255.333" height="12"/>
  <object id="291" x="223.333" y="2.66667" width="97.3333" height="62.6667"/>
  <object id="293" x="320" y="10" width="252.667" height="20"/>
  <object id="294" x="1696" y="287.333" width="31.6667" height="10"/>
  <object id="295" x="1792.36" y="160.545" width="32" height="6.18182"/>
  <object id="300" x="1152.67" y="313.833" width="94.6667" height="29.3333"/>
  <object id="301" x="1216.67" y="345.167" width="93" height="29.6667"/>
  <object id="302" x="1282" y="376.667" width="92.6667" height="31"/>
  <object id="308" x="1217" y="230.5" width="30" height="25.5"/>
  <object id="309" x="1249" y="192.5" width="29" height="62.8333"/>
  <object id="310" x="1185.5" y="240.5" width="29" height="12.5"/>
  <object id="311" x="1184" y="122.333" width="64.6667" height="8.66667"/>
  <object id="312" x="832.667" y="856" width="158" height="7.66667"/>
 </objectgroup>
</map>
