<?xml version="1.0" encoding="UTF-8"?>
<map version="1.10" tiledversion="1.11.2" orientation="orthogonal" renderorder="right-down" width="70" height="50" tilewidth="32" tileheight="32" infinite="0" nextlayerid="5" nextobjectid="38">
 <tileset firstgid="1" name="Tileset_Nvl2" tilewidth="32" tileheight="32" tilecount="64" columns="8">
  <image source="Tileset.png" width="256" height="256"/>
 </tileset>
 <layer id="1" name="Nvl2" width="70" height="50">
  <data encoding="csv">
0,0,0,0,0,0,0,0,0,0,0,0,0,0,0,0,0,0,0,0,0,0,0,0,0,0,0,0,0,0,0,0,0,0,0,0,0,0,0,0,0,0,0,0,0,0,0,0,0,0,0,0,0,0,0,0,0,0,0,0,0,0,0,0,0,0,0,0,0,0,
0,0,0,0,0,0,0,0,0,0,0,0,0,0,0,0,0,0,0,0,0,0,0,0,0,0,0,0,0,0,0,0,0,0,0,0,0,0,0,0,0,0,0,0,0,0,0,0,0,0,0,0,0,0,0,0,0,0,0,0,0,0,0,0,0,0,0,0,0,0,
0,0,0,0,0,0,0,0,0,0,0,0,0,0,0,0,0,0,0,0,0,0,0,0,0,0,0,0,0,0,0,0,0,0,0,0,0,0,0,0,0,0,0,0,0,0,0,0,0,0,0,0,0,0,0,0,0,0,0,0,0,0,0,0,0,0,0,0,0,0,
0,1,2,2,3,0,0,25,2,3,0,0,0,0,0,0,0,0,0,0,0,0,0,0,0,0,0,0,0,0,0,0,0,0,0,0,0,0,0,0,0,0,0,0,0,0,0,0,0,0,0,0,0,0,0,0,0,0,0,0,0,0,0,0,0,0,0,0,0,0,
0,9,5,6,10,3,0,0,17,19,0,1,3,0,0,0,0,0,0,0,0,0,0,0,0,0,0,0,0,0,0,0,0,0,0,0,0,0,0,0,0,0,0,0,0,0,0,0,0,0,0,0,0,0,0,0,0,0,0,0,0,0,0,0,0,0,0,0,0,0,
0,9,13,14,10,10,3,0,0,0,0,9,11,0,1,2,3,0,0,1,2,3,0,0,0,0,0,0,0,0,0,0,0,0,0,0,0,0,0,0,0,0,0,0,0,0,0,0,0,0,0,0,0,0,0,0,0,0,0,0,0,0,0,0,0,0,0,0,0,0,
0,9,10,10,10,10,10,3,0,0,1,10,11,0,9,10,11,0,0,9,10,11,0,1,2,2,3,0,0,0,0,0,0,0,0,0,0,0,0,0,0,0,0,0,0,0,0,0,0,0,0,0,0,0,0,0,0,0,0,0,0,0,0,0,0,0,0,0,0,0,
0,9,10,5,6,10,10,10,2,2,10,10,11,0,9,10,11,0,0,9,10,11,0,17,18,18,19,0,25,27,0,0,0,0,0,0,0,0,0,0,0,0,0,0,0,0,0,0,0,0,0,0,0,0,0,0,0,0,1,3,0,0,0,0,0,0,0,0,0,0,
0,9,10,13,14,10,5,6,10,10,5,6,11,0,9,10,11,0,0,9,10,11,0,0,0,0,0,0,0,0,0,1,3,0,1,3,0,0,0,0,0,0,0,0,0,0,0,0,0,0,0,0,0,0,0,0,0,0,9,11,33,34,0,0,0,0,0,0,0,0,
0,9,10,10,10,10,13,14,10,10,13,14,11,0,9,10,11,0,0,9,10,11,0,0,0,0,0,0,0,0,0,9,11,0,9,10,3,0,0,0,0,0,0,0,0,0,0,0,0,0,0,0,0,0,0,0,0,0,9,11,41,42,3,0,0,0,0,0,0,0,
0,17,18,18,18,18,18,18,18,18,18,18,19,0,9,10,11,0,0,9,10,11,0,0,0,0,0,0,0,0,0,17,19,0,17,18,18,27,0,0,0,0,0,0,0,0,0,0,0,0,0,0,0,0,0,0,0,0,9,10,10,10,11,0,0,0,0,0,0,0,
0,0,0,0,0,0,0,0,0,0,0,0,0,0,9,10,11,0,0,9,10,11,0,0,0,0,0,0,0,0,0,0,0,0,0,0,0,0,0,25,26,26,27,0,0,0,0,0,0,0,0,0,0,0,0,0,0,0,9,5,6,10,11,0,0,0,0,0,0,0,
0,0,0,0,0,0,0,0,0,0,0,0,0,0,9,10,11,0,0,9,10,11,0,0,0,0,0,0,0,0,0,0,0,0,0,0,0,0,0,0,0,0,0,0,33,34,0,0,0,0,0,0,0,0,0,0,0,0,9,13,14,10,11,0,0,0,0,0,0,0,
0,0,0,0,0,0,0,0,0,0,0,0,0,0,9,10,11,0,0,9,10,11,0,0,0,0,0,0,0,0,0,0,0,0,0,0,0,0,0,0,0,0,0,25,41,42,27,0,0,0,0,0,0,0,0,0,0,0,9,10,10,10,11,0,0,0,0,0,0,0,
0,0,0,0,0,0,0,0,0,0,0,0,0,0,9,10,11,0,0,9,10,11,0,0,0,0,0,0,0,0,0,0,0,0,0,0,0,0,25,26,26,27,0,0,17,19,0,0,0,0,0,0,0,0,0,0,0,0,9,10,10,10,11,0,0,0,0,0,0,0,
0,0,0,0,0,0,0,0,0,0,0,0,0,0,9,10,11,0,0,9,10,11,0,0,0,0,0,0,0,0,0,0,0,0,1,3,0,0,0,0,0,0,0,0,0,0,0,0,0,0,0,0,0,0,0,0,0,0,9,10,5,6,11,0,0,0,0,0,0,0,
0,0,0,0,0,0,0,0,0,0,0,0,0,0,9,10,11,0,0,9,10,11,0,0,0,0,0,0,0,0,0,0,0,0,17,18,27,0,0,0,0,0,0,0,0,0,0,0,0,0,0,0,0,0,0,0,0,0,9,10,13,14,11,0,0,0,0,0,0,0,
0,0,0,0,0,0,0,0,0,0,0,0,0,0,9,10,11,0,0,9,10,11,0,0,0,0,0,0,0,0,0,0,0,0,0,0,0,0,25,27,0,0,0,0,0,0,0,0,0,0,0,0,0,0,0,0,0,0,9,10,10,10,11,0,0,0,0,0,0,0,
0,0,0,0,0,0,0,0,0,0,0,0,0,0,9,10,11,0,0,9,10,11,0,0,0,0,0,0,0,0,0,0,0,0,0,0,0,0,0,0,0,0,0,0,0,0,0,0,0,0,0,0,0,0,0,0,0,0,9,10,10,10,11,0,0,0,0,0,0,0,
0,0,0,0,0,0,0,0,0,0,0,0,0,0,9,10,11,0,0,9,10,11,0,0,0,0,0,0,0,0,0,0,0,0,0,0,0,0,0,0,1,3,0,0,0,0,0,0,0,0,0,0,0,0,0,0,0,0,9,5,6,10,11,0,0,0,0,0,0,0,
0,0,0,0,0,0,0,0,0,0,0,0,0,0,9,10,11,0,0,9,10,11,0,0,0,0,0,0,0,0,0,0,0,0,0,0,0,0,0,1,10,10,3,0,0,0,0,0,0,0,0,0,0,0,0,0,0,0,9,13,14,10,11,0,0,0,0,0,0,0,
0,0,0,0,0,0,0,0,0,0,0,0,0,0,17,18,19,0,0,17,18,19,0,0,0,0,0,0,0,0,0,0,0,0,0,0,0,0,1,10,10,10,10,3,0,0,0,0,0,0,0,0,0,0,0,0,0,0,9,10,10,10,11,0,0,0,0,0,0,0,
0,0,0,0,0,0,0,0,0,0,0,0,0,0,0,0,0,0,0,0,0,0,0,0,0,0,0,0,0,0,0,0,0,0,0,0,0,25,18,18,18,18,18,18,27,0,0,0,0,0,0,0,0,0,0,0,0,0,17,18,18,18,19,0,0,0,0,0,0,0,
0,0,0,0,0,0,0,0,0,0,0,0,0,0,0,0,0,1,3,0,0,0,0,0,0,0,0,0,0,0,0,0,25,26,26,27,0,0,0,0,0,0,0,0,0,0,1,2,3,0,0,0,0,0,0,0,0,0,0,0,0,0,0,0,0,0,0,0,0,0,
0,0,0,0,0,0,0,0,0,0,0,0,0,0,0,0,1,10,10,3,0,0,0,0,0,0,0,0,25,26,27,0,0,0,0,0,0,0,0,0,0,0,0,0,0,0,17,18,18,26,27,0,0,0,0,0,0,0,0,0,0,0,0,0,0,0,0,0,0,0,
0,0,0,0,0,0,0,0,0,0,0,0,0,0,0,1,10,5,6,10,3,0,0,0,0,1,3,0,0,0,0,0,0,0,0,0,0,0,0,0,0,0,0,0,0,0,0,0,0,0,0,0,1,2,2,2,2,2,2,2,2,2,2,3,0,0,0,0,0,0,
0,0,0,0,0,0,0,0,0,0,0,0,0,0,1,10,10,13,14,10,10,3,0,0,25,18,19,0,0,0,0,0,0,0,0,0,0,0,0,0,0,0,0,0,0,0,0,0,0,0,0,0,17,18,18,18,10,10,18,18,18,19,0,0,0,1,2,2,2,2,
0,0,0,0,0,0,0,0,0,0,0,0,0,1,10,5,6,10,10,5,6,10,3,0,0,0,0,0,0,0,0,0,0,0,0,0,0,0,0,0,0,0,0,0,0,0,0,0,0,0,0,0,0,0,0,0,21,22,0,0,0,0,0,0,1,10,10,5,6,10,
0,0,0,0,0,0,0,0,0,0,0,0,0,9,10,13,14,10,10,13,14,10,11,0,0,0,0,0,0,0,0,0,0,0,0,0,0,0,0,0,0,0,0,0,0,0,0,0,0,0,0,0,0,0,0,0,29,30,0,0,0,0,0,1,10,10,10,13,14,10,
0,0,0,0,0,0,0,0,0,0,0,0,0,9,10,10,10,10,10,10,10,10,11,0,0,0,0,0,0,0,0,0,0,0,0,0,0,0,0,0,0,0,0,0,0,0,0,0,0,0,0,0,0,0,0,0,21,22,0,0,0,0,1,10,5,6,10,10,10,10,
0,0,0,0,0,0,0,0,0,0,0,0,0,9,10,10,10,5,6,10,10,10,11,0,0,0,0,0,0,0,0,0,0,0,0,0,0,0,0,0,0,0,0,0,0,0,0,0,0,0,0,0,0,0,0,0,29,30,0,0,0,1,10,10,13,14,10,10,5,6,
0,0,0,0,0,0,0,0,0,0,0,0,0,9,10,10,10,13,14,10,10,10,11,0,0,0,0,0,0,0,0,0,0,0,0,0,0,0,0,0,0,0,0,0,0,0,0,0,0,0,0,0,0,0,0,0,9,11,0,0,25,18,18,10,10,10,10,10,13,14,
0,0,0,0,0,0,0,0,0,0,0,0,0,9,10,10,10,10,10,10,10,10,11,0,0,0,0,0,0,0,0,0,0,0,0,0,0,0,0,0,0,0,0,0,0,0,0,0,0,0,0,0,0,0,0,0,9,10,3,0,0,0,0,17,18,18,18,18,10,10,
0,0,0,0,0,0,0,0,0,0,0,0,0,17,18,18,18,18,18,18,18,18,19,0,0,0,0,0,0,0,0,0,0,0,0,0,0,0,0,0,0,0,0,0,0,0,0,0,0,0,0,0,0,0,0,0,9,10,10,3,0,0,0,0,0,0,0,0,9,10,
0,0,0,0,0,0,0,0,0,0,0,0,0,0,0,0,0,0,0,0,0,0,0,0,0,0,0,0,0,0,0,0,0,0,0,0,0,0,0,0,0,0,0,0,0,0,0,0,0,0,0,0,0,0,0,0,9,5,6,10,3,0,0,0,0,0,0,0,9,10,
0,0,0,0,0,0,0,0,0,0,0,0,0,0,0,0,0,0,0,0,0,0,0,0,0,0,0,0,0,0,0,0,0,0,0,0,0,0,0,0,0,0,0,0,0,0,0,0,0,0,0,0,0,0,0,0,9,13,14,10,10,2,2,3,0,0,0,0,9,10,
0,0,0,0,0,0,0,0,0,0,0,0,0,0,0,0,0,0,0,0,0,0,0,0,0,0,0,0,0,0,0,0,0,0,0,0,0,0,0,0,0,0,0,0,0,0,0,0,0,0,0,0,0,0,0,0,17,18,18,18,18,18,18,18,27,0,0,1,10,10,
0,0,0,0,0,0,0,0,0,0,0,0,0,0,0,0,0,0,0,0,0,0,0,0,0,0,0,0,0,0,0,0,0,0,0,0,0,0,0,0,0,0,0,0,0,0,0,0,0,0,0,0,0,0,0,0,0,0,0,0,0,0,0,0,0,0,1,10,10,10,
0,0,0,0,0,0,0,0,0,0,0,0,0,0,0,0,0,0,0,0,0,0,0,0,0,0,0,0,0,0,0,0,0,0,0,4,0,0,0,0,0,0,0,0,0,0,0,0,0,0,0,0,0,0,0,0,0,0,0,0,0,0,0,0,0,1,10,10,5,6,
0,0,0,0,0,0,0,0,0,0,0,0,0,0,0,0,0,0,0,0,0,0,0,0,0,0,0,0,0,0,0,0,0,4,0,12,0,0,0,0,0,0,0,0,0,0,0,0,0,0,0,0,0,0,0,0,0,0,0,0,0,0,0,0,1,10,10,10,13,14,
0,0,0,0,0,0,0,0,0,0,0,0,0,0,0,0,0,0,0,0,0,0,0,0,0,0,0,0,0,0,1,2,2,2,2,2,2,3,0,0,0,0,0,0,0,0,0,0,0,0,0,0,0,0,0,0,0,0,0,0,0,0,0,1,10,5,6,10,10,10,
0,0,0,0,0,0,0,0,0,0,0,0,0,0,0,0,0,0,0,0,0,0,0,0,0,0,0,0,0,1,10,10,10,10,10,10,10,11,0,0,0,0,0,0,0,0,0,33,34,0,1,2,2,2,3,0,0,0,0,0,0,0,1,10,10,13,14,10,10,10,
0,0,0,0,0,0,0,0,0,0,0,0,0,0,0,0,0,0,0,0,0,0,0,0,0,0,0,0,1,10,10,10,10,10,10,10,10,11,0,0,0,0,0,0,0,0,1,41,42,2,10,10,10,10,11,0,0,0,0,0,1,2,10,10,10,10,10,5,6,10,
0,0,0,0,0,0,0,0,0,0,0,0,0,0,0,0,0,0,0,0,33,34,0,0,0,0,0,1,10,10,10,10,10,5,6,10,10,11,0,0,0,0,1,2,2,2,10,10,10,10,10,10,10,10,11,0,0,1,2,2,10,10,5,6,10,10,10,13,14,10,
2,2,2,2,2,3,0,0,0,0,0,0,0,0,1,2,2,2,2,2,41,42,2,2,2,2,2,10,10,5,6,10,10,13,14,10,10,11,0,0,0,0,9,10,10,10,10,10,10,10,10,5,6,10,11,0,0,9,10,10,10,10,13,14,10,10,10,10,10,10,
10,10,10,10,10,11,0,0,1,2,2,3,0,0,17,18,10,10,10,10,10,10,10,10,10,10,10,10,10,13,14,10,10,10,10,10,10,11,0,0,0,0,9,10,5,6,10,10,10,10,10,13,14,10,11,0,0,9,5,6,10,10,10,10,10,10,5,6,10,10,
10,5,6,10,10,11,0,0,9,10,10,11,0,0,0,0,9,10,10,10,5,6,10,10,10,10,10,10,10,10,10,10,10,10,10,10,10,11,0,0,0,0,9,10,13,14,10,10,10,10,10,10,10,10,11,0,0,9,13,14,10,10,10,10,10,10,13,14,10,10,
10,13,14,5,6,11,0,0,9,5,6,11,0,0,0,0,9,10,10,10,13,14,10,10,10,10,5,6,10,10,10,10,10,10,10,5,6,11,0,0,0,0,9,10,10,10,10,10,5,6,10,10,10,10,11,0,0,9,10,10,10,5,6,10,10,10,10,10,10,10,
10,10,10,13,14,11,0,0,9,13,14,11,0,0,0,0,9,10,10,10,10,10,10,10,10,10,13,14,10,10,10,10,10,10,10,13,14,11,0,0,0,0,9,10,10,10,10,10,13,14,10,10,10,10,11,0,0,9,10,10,10,13,14,10,10,10,10,10,10,10,
10,10,10,10,10,11,0,0,9,10,10,11,0,0,0,0,9,10,10,10,10,10,10,10,10,10,10,10,10,10,10,10,10,10,10,10,10,11,0,0,0,0,9,10,10,10,10,10,10,10,10,10,10,10,11,0,0,9,10,10,10,10,10,10,10,10,10,10,10,10
</data>
 </layer>
 <objectgroup id="3" name="Object Layer 1">
  <object id="2" x="0.380055" y="1408.48" width="191.168" height="191.548"/>
  <object id="6" x="256.368" y="1440.44" width="127.37" height="159.144"/>
  <object id="7" x="640.369" y="1407.9">
   <polygon points="0,0 31.618,-31.7561 63.7884,0.41421 63.8839,191.509 -0.215086,191.787"/>
  </object>
  <object id="9" x="640.347" y="1409.1">
   <polygon points="0,0 -191.485,-0.281595 -192.048,62.7957 -127.563,63.3589 -128.126,190.64 0,190.358"/>
  </object>
  <object id="10" x="704.757" y="1408.88">
   <polygon points="0,0 160.143,-0.629247 159.829,-32.4062 192.235,-32.7209 191.92,-63.8686 223.697,-64.1832 223.697,-97.2187 256.104,-96.2749 255.789,-128.366 351.749,-128.996 351.749,-160.458 383.212,-160.458 382.582,-128.996 415.933,-128.996 415.618,-192.55 446.766,-192.55 447.395,-129.31 511.264,-128.681 510.949,190.977 -0.52079,190.637"/>
  </object>
  <object id="11" x="1344.63" y="1376.6">
   <polygon points="0,0 127.68,0 127.475,-32.381 159.036,-32.586 191.212,-64.967 223.593,-32.381 255.564,-32.586 255.564,-64.3522 415.42,-64.3522 415.42,223.388 -0.409886,223.388"/>
  </object>
  <object id="12" x="1824.23" y="1599.71">
   <polygon points="0,0 -0.115972,-223.825 95.9085,-223.709 95.7925,-255.485 159.809,-255.717 159.693,-287.842 191.817,-287.842 191.933,-319.734 223.709,-319.85 223.825,-351.626 255.833,-351.626 255.833,-383.518 287.842,-383.634 287.842,-415.642 319.85,-415.758 319.734,-447.882 351.858,-447.65 351.742,-543.559 191.73,-543.789 191.903,-575.923 95.674,-575.923 95.8467,-607.539 127.635,-607.884 127.808,-639.672 159.769,-639.672 159.769,-671.806 191.73,-671.806 191.557,-703.594 223.691,-703.94 223.691,-735.728 255.825,-735.901 255.825,-767.689 415.803,-767.516 415.63,0.0664739"/>
  </object>
  <object id="13" x="1664.17" y="800.3">
   <polygon points="0,0 -0.325988,63.7306 127.624,63.8936 127.95,383.688 415.797,383.688 415.634,351.578 384.014,351.578 383.851,319.957 288.01,319.468 287.847,287.358 255.737,287.358 255.837,255.708 223.817,255.597 223.705,223.576 191.908,223.464 191.908,63.8081 319.99,63.6965 319.878,31.676 383.919,31.5644 383.808,-0.232967"/>
  </object>
  <object id="14" x="1855.94" y="224.257">
   <polygon points="0,0 0.247525,511.386 159.901,511.386 159.901,63.8614 128.465,63.8614 96.0396,31.4356 64.3564,63.3663 63.8614,-0.247525"/>
  </object>
  <object id="15" x="416.017" y="864.128">
   <polygon points="0,0 0,223.723 320.003,223.723 320.003,-0.266336 287.91,-0.399505 287.91,-32.0935 256.082,-32.3599 255.949,-64.0539 224.122,-64.3202 223.989,-96.5469 191.762,-96.4138 191.895,-128.241 127.841,-128.108 127.708,-96.1474 95.8811,-96.1474 95.8811,-64.3202 63.7876,-64.3202 63.9207,-32.0935 31.8272,-32.2267 31.9604,0"/>
  </object>
  <object id="16" x="224.913" y="96.7685">
   <polygon points="0,0 94.7159,0 95.0091,63.0462 31.0832,63.0462 31.3765,31.6697 -0.879714,31.0832"/>
  </object>
  <object id="17" x="32.0681" y="96.2977">
   <polygon points="0,0 0,255.61 383.975,255.61 383.788,31.6941 319.839,31.6006 319.839,95.5497 287.771,95.5497 287.865,127.524 223.915,127.618 223.915,95.5497 191.847,95.4562 191.847,63.5752 159.966,63.4817 159.873,31.6006 127.992,31.6006 127.898,-0.373972"/>
  </object>
  <object id="18" x="448.292" y="160.586">
   <polygon points="0,0 -0.232396,543.109 95.7472,542.645 95.7472,-0.697188"/>
  </object>
  <object id="19" x="607.948" y="160.586">
   <polygon points="0,0 -0.232396,543.109 95.9795,543.342 95.9795,-0.464792"/>
  </object>
  <object id="20" x="736.028" y="191.944">
   <polygon points="0,0 0,63.6179 127.963,63.9814 127.842,-0.121177"/>
  </object>
  <object id="21" x="895.982" y="223.935">
   <polygon points="0,0 0.121177,31.9907 64.1026,32.1119 63.9814,0.242354"/>
  </object>
  <object id="22" x="991.997" y="255.967">
   <polygon points="0,0 -0.0992891,96.0126 64.0415,96.0126 63.9422,0"/>
  </object>
  <object id="23" x="1087.99" y="255.956">
   <polygon points="0,0 0,95.8251 127.978,95.9658 127.907,64.0241 95.9658,63.9537 95.9658,31.8713 64.0944,32.012 64.0241,-0.0703561"/>
  </object>
  <object id="24" x="1248.1" y="352.324">
   <polygon points="0,0 0,31.1718 127.969,31.1718 127.558,0.205078"/>
  </object>
  <object id="25" x="1376.48" y="416.513">
   <polygon points="0,0 31.9921,-0.820311 63.369,-32.6074 95.7713,-0.615233 127.353,-0.410155 127.353,30.9667 95.5662,31.1718 95.7713,62.9589 31.582,62.9589 31.3769,31.582 -0.615233,31.3769"/>
  </object>
  <object id="26" x="1215.94" y="447.997">
   <polygon points="0,0 127.962,0.0861698 127.962,31.969 0.0861698,31.7966"/>
  </object>
  <object id="27" x="1088.01" y="479.913">
   <polygon points="0,0 63.7503,0.137393 63.7503,31.8751 95.9002,31.8751 95.7628,63.8877 -0.274786,63.6129"/>
  </object>
  <object id="28" x="1215.95" y="544.007">
   <polygon points="0,0 0.205518,31.8553 64.0189,31.7526 64.0189,0.205518"/>
  </object>
  <object id="29" x="1472" y="736">
   <polygon points="0,0 0,63.7271 159.945,64.006 160.085,31.9333 95.9393,31.9333 95.7999,0"/>
  </object>
  <object id="30" x="799.965" y="799.965">
   <polygon points="0,0 0,32.0184 -32.2656,31.8948 -32.0184,63.9132 64.0368,64.0368 64.0368,0"/>
  </object>
  <object id="31" x="896.066" y="768.106">
   <polygon points="0,0 -0.116011,31.7869 95.9408,31.7869 95.9408,0"/>
  </object>
  <object id="32" x="1024.09" y="735.956">
   <polygon points="0,0 127.718,0.293268 127.718,32.1128 -0.146634,31.9662"/>
  </object>
  <object id="33" x="1280.09" y="608.317">
   <polygon points="0,0 63.8334,0.18998 63.8334,31.7267 95.9401,31.9167 95.9401,63.6434 127.667,63.6434 127.857,95.3702 160.154,95.7501 159.774,127.477 -96.1301,127.477 -96.1301,95.5602 -64.2134,95.3702 -64.2134,63.6434 -31.9167,63.6434 -31.7267,31.7267 0,31.5368"/>
  </object>
 </objectgroup>
 <layer id="2" name="Background" width="70" height="50">
  <data encoding="csv">
0,0,0,0,0,0,0,0,0,0,0,0,0,0,0,0,0,0,0,0,0,0,0,0,0,0,0,0,0,0,0,0,0,0,0,0,0,0,0,0,0,0,0,0,0,0,0,0,0,0,0,0,0,0,0,0,0,0,0,0,0,0,0,0,0,0,0,0,0,0,
0,0,0,0,0,0,0,0,0,0,0,0,0,0,0,0,0,0,0,0,0,0,0,0,0,0,0,0,0,0,0,0,0,0,0,0,0,0,0,0,0,0,0,0,0,0,0,0,0,0,0,0,0,0,0,0,0,0,0,0,0,0,0,0,0,0,0,0,0,0,
0,0,0,0,0,0,0,0,0,0,0,0,0,0,0,0,0,0,0,0,0,0,0,0,0,0,0,0,0,0,0,0,0,0,0,0,0,0,0,0,0,0,0,0,0,0,0,0,0,0,0,0,0,0,0,0,0,0,0,0,0,0,0,0,0,0,0,0,0,0,
0,0,0,0,0,0,0,0,0,0,0,0,0,0,0,0,0,0,0,0,0,0,0,0,0,0,0,0,0,0,0,0,0,0,0,0,0,0,0,0,0,0,0,0,0,0,0,0,0,0,0,0,0,0,0,0,0,0,0,0,0,0,0,0,0,0,0,0,0,0,
0,0,0,0,0,0,61,61,0,0,61,0,0,0,0,0,0,0,0,0,0,0,0,0,0,0,0,0,0,0,0,0,0,0,0,0,0,0,0,0,0,0,0,0,0,0,0,0,0,0,0,0,0,0,0,0,0,0,0,0,0,0,0,0,0,0,0,0,0,0,
0,0,0,0,0,0,0,61,61,61,61,0,0,0,0,0,0,0,0,0,0,0,0,0,0,0,0,0,0,0,0,0,0,0,0,0,0,0,0,0,0,0,0,0,0,0,0,0,0,0,0,0,0,0,0,0,0,0,0,0,0,0,0,0,0,0,0,0,0,0,
0,0,0,0,0,0,0,0,61,61,0,0,0,0,0,0,0,0,0,0,0,0,0,0,0,0,0,0,0,0,0,0,0,0,0,0,0,0,0,0,0,0,0,0,0,0,0,0,0,0,0,0,0,0,0,0,0,0,0,0,0,0,0,0,0,0,0,0,0,0,
0,0,0,0,0,0,0,0,0,0,0,0,0,0,0,0,0,0,0,0,0,0,0,0,0,0,0,0,0,0,0,0,0,0,0,0,0,0,0,0,0,0,0,0,0,0,0,0,0,0,0,0,0,0,0,0,0,0,0,0,0,0,0,0,0,0,0,0,0,0,
0,0,0,0,0,0,0,0,0,0,0,0,0,0,0,0,0,0,0,0,0,0,0,0,0,0,0,0,0,0,0,0,0,0,0,0,0,0,0,0,0,0,0,0,0,0,0,0,0,0,0,0,0,0,0,0,0,0,0,0,0,0,0,0,0,0,0,0,0,0,
0,0,0,0,0,0,0,0,0,0,0,0,0,0,0,0,0,0,0,0,0,0,0,0,0,0,0,0,0,0,0,0,0,0,0,0,0,0,0,0,0,0,0,0,0,0,0,0,0,0,0,0,0,0,0,0,0,0,0,0,0,0,0,0,0,0,0,0,0,0,
0,0,0,0,0,0,0,0,0,0,0,0,0,0,0,0,0,0,0,0,0,0,0,0,0,0,0,0,0,0,0,0,0,0,0,0,0,0,0,0,0,0,0,0,0,0,0,0,0,0,0,0,0,0,0,0,0,0,0,0,0,0,0,0,0,0,0,0,0,0,
0,0,0,0,0,0,0,0,0,0,0,0,0,0,0,0,0,0,0,0,0,0,0,0,0,0,0,0,0,0,0,0,0,0,0,0,0,0,0,0,0,0,0,0,0,0,0,0,0,0,0,0,0,0,0,0,0,0,0,0,0,0,0,0,0,0,0,0,0,0,
0,0,0,0,0,0,0,0,0,0,0,0,0,0,0,0,0,0,0,0,0,0,0,0,0,0,0,0,0,0,0,0,0,0,0,0,0,0,0,0,0,0,0,0,0,0,0,0,0,0,0,0,0,0,0,0,0,0,0,0,0,0,0,0,0,0,0,0,0,0,
0,0,0,0,0,0,0,0,0,0,0,0,0,0,0,0,0,0,0,0,0,0,0,0,0,0,0,0,0,0,0,0,0,0,0,0,0,0,0,0,0,0,0,0,0,0,0,0,0,0,0,0,0,0,0,0,0,0,0,0,0,0,0,0,0,0,0,0,0,0,
0,0,0,0,0,0,0,0,0,0,0,0,0,0,0,0,0,0,0,0,0,0,0,0,0,0,0,0,0,0,0,0,0,0,0,0,0,0,0,0,0,0,0,0,0,0,0,0,0,0,0,0,0,0,0,0,0,0,0,0,0,0,0,0,0,0,0,0,0,0,
0,0,0,0,0,0,0,0,0,0,0,0,0,0,0,0,0,0,0,0,0,0,0,0,0,0,0,0,0,0,0,0,0,0,0,0,0,0,0,0,0,0,0,0,0,0,0,0,0,0,0,0,0,0,0,0,0,0,0,0,0,0,0,0,0,0,0,0,0,0,
0,0,0,0,0,0,0,0,0,0,0,0,0,0,0,0,0,0,0,0,0,0,0,0,0,0,0,0,0,0,0,0,0,0,0,0,0,0,0,0,0,0,0,0,0,0,0,0,0,0,0,0,0,0,0,0,0,0,0,0,0,0,0,0,0,0,0,0,0,0,
0,0,0,0,0,0,0,0,0,0,0,0,0,0,0,0,0,0,0,0,0,0,0,0,0,0,0,0,0,0,0,0,0,0,0,0,0,0,0,0,0,0,0,0,0,0,0,0,0,0,0,0,0,0,0,0,0,0,0,0,0,0,0,0,0,0,0,0,0,0,
0,0,0,0,0,0,0,0,0,0,0,0,0,0,0,0,0,0,0,0,0,0,0,0,0,0,0,0,0,0,0,0,0,0,0,0,0,0,0,0,0,0,0,0,0,0,0,0,0,0,0,0,0,0,0,0,0,0,0,0,0,0,0,0,0,0,0,0,0,0,
0,0,0,0,0,0,0,0,0,0,0,0,0,0,0,0,0,0,0,0,0,0,0,0,0,0,0,0,0,0,0,0,0,0,0,0,0,0,0,0,0,0,0,0,0,0,0,0,0,0,0,0,0,0,0,0,0,0,0,0,0,0,0,0,0,0,0,0,0,0,
0,0,0,0,0,0,0,0,0,0,0,0,0,0,0,0,0,0,0,0,0,0,0,0,0,0,0,0,0,0,0,0,0,0,0,0,0,0,0,0,0,0,0,0,0,0,0,0,0,0,0,0,0,0,0,0,0,0,0,0,0,0,0,0,0,0,0,0,0,0,
0,0,0,0,0,0,0,0,0,0,0,0,0,0,0,0,0,0,0,0,0,0,0,0,0,0,0,0,0,0,0,0,0,0,0,0,0,0,0,0,0,0,0,0,0,0,0,0,0,0,0,0,0,0,0,0,0,0,0,0,0,0,0,0,0,0,0,0,0,0,
0,0,0,0,0,0,0,0,0,0,0,0,0,0,0,0,0,0,0,0,0,0,0,0,0,0,0,0,0,0,0,0,0,0,0,0,0,0,0,0,0,0,0,0,0,0,0,0,0,0,0,0,0,0,0,0,0,0,0,0,0,0,0,0,0,0,0,0,0,0,
0,0,0,0,0,0,0,0,0,0,0,0,0,0,0,0,0,0,0,0,0,0,0,0,0,0,0,0,0,0,0,0,0,0,0,0,0,0,0,0,0,0,0,0,0,0,0,0,0,0,0,0,0,0,0,0,0,0,54,61,61,61,62,0,0,0,0,0,0,0,
0,0,0,0,0,0,0,0,0,0,0,0,0,0,0,0,0,0,0,0,0,0,0,0,0,0,0,0,0,0,0,0,0,0,0,0,0,0,0,0,0,0,0,0,0,0,0,0,0,0,0,0,0,0,0,0,0,0,54,61,61,61,62,0,0,0,0,0,0,0,
0,0,0,0,0,0,0,0,0,0,0,0,0,0,0,0,0,0,0,0,0,0,0,0,0,0,0,0,0,0,0,0,0,0,0,0,0,0,0,0,0,0,0,0,0,0,0,0,0,0,0,0,0,0,0,0,0,0,0,0,0,0,0,0,0,0,0,0,0,0,
0,0,0,0,0,0,0,0,0,0,0,0,0,0,0,0,0,0,0,0,0,0,0,0,0,0,0,0,0,0,0,0,0,0,0,0,0,0,0,0,0,0,0,0,0,0,0,0,0,0,0,0,0,0,0,0,0,0,0,0,0,0,61,61,61,0,0,0,0,0,
0,0,0,0,0,0,0,0,0,0,0,0,0,0,0,0,0,0,0,0,0,0,0,0,0,0,0,0,0,0,0,0,0,0,0,0,0,0,0,0,0,0,0,0,0,0,0,0,0,0,0,0,0,0,0,0,0,0,61,61,61,61,61,61,0,0,0,0,0,0,
0,0,0,0,0,0,0,0,0,0,0,0,0,0,0,0,0,0,0,0,0,0,0,0,0,0,0,0,0,0,0,0,0,0,0,0,0,0,0,0,0,0,0,0,0,0,0,0,0,0,0,0,0,0,0,0,0,0,61,61,61,61,61,0,0,0,0,0,0,0,
0,0,0,0,0,0,0,0,0,0,0,0,0,0,0,0,0,0,0,0,0,0,0,0,0,0,0,0,0,0,0,0,0,0,0,0,0,0,0,0,0,0,0,0,0,0,0,0,0,0,0,0,0,0,0,0,0,0,61,61,61,61,0,0,0,0,0,0,0,0,
0,0,0,0,0,0,0,0,0,0,0,0,0,0,0,0,0,0,0,0,0,0,0,0,0,0,0,0,0,0,0,0,0,0,0,0,0,0,0,0,0,0,0,0,0,0,0,0,0,0,0,0,0,0,0,0,0,0,61,61,61,0,0,0,0,0,0,0,0,0,
0,0,0,0,0,0,0,0,0,0,0,0,0,0,0,0,0,0,0,0,0,0,0,0,0,0,0,0,0,0,0,0,0,0,0,0,0,0,0,0,0,0,0,0,0,0,0,0,0,0,0,0,0,0,0,0,0,0,61,61,0,0,0,0,0,0,0,0,0,0,
0,0,0,0,0,0,0,0,0,0,0,0,0,0,0,0,0,0,0,0,0,0,0,0,0,0,0,0,0,0,0,0,0,0,0,0,0,0,0,0,0,0,0,0,0,0,0,0,0,0,0,0,0,0,0,0,0,0,0,61,61,61,61,0,0,0,0,0,0,0,
0,0,0,0,0,0,0,0,0,0,0,0,0,0,0,0,0,0,0,0,0,0,0,0,0,0,0,0,0,0,0,0,0,0,0,0,0,0,0,0,0,0,0,0,0,0,0,0,0,0,0,0,0,0,0,0,0,0,0,0,61,61,61,61,61,61,61,54,0,0,
0,0,0,0,0,0,0,0,0,0,0,0,0,0,0,0,0,0,0,0,0,0,0,0,0,0,0,0,0,0,0,0,0,0,0,0,0,0,0,0,0,0,0,0,0,0,0,0,0,0,0,0,0,0,0,0,0,0,0,0,0,61,61,61,61,61,61,54,0,0,
0,0,0,0,0,0,0,0,0,0,0,0,0,0,0,0,0,0,0,0,0,0,0,0,0,0,0,0,0,0,0,0,0,0,0,0,0,0,0,0,0,0,0,0,0,0,0,0,0,0,0,0,0,0,0,0,0,0,0,0,0,0,0,0,61,61,61,54,0,0,
0,0,0,0,0,0,0,0,0,0,0,0,0,0,0,0,0,0,0,0,0,0,0,0,0,0,0,0,0,0,0,0,0,0,0,0,0,0,0,0,0,0,0,0,0,0,0,0,0,0,0,0,0,0,0,0,0,0,0,0,0,0,0,0,0,61,61,0,0,0,
0,0,0,0,0,0,0,0,0,0,0,0,0,0,0,0,0,0,0,0,0,0,0,0,0,0,0,0,0,0,0,0,0,0,0,0,0,0,0,0,0,0,0,0,0,0,0,0,0,0,0,0,0,0,0,0,0,54,61,61,61,61,61,61,61,61,0,0,0,0,
0,0,0,0,0,0,0,0,0,0,0,0,0,0,0,0,0,0,0,0,0,0,0,0,0,0,0,0,0,0,0,0,0,0,0,0,0,0,0,0,0,0,0,0,0,0,0,0,0,0,0,0,0,0,0,0,0,54,61,61,61,61,61,61,61,0,0,0,0,0,
0,0,0,0,0,0,0,0,0,0,0,0,0,0,0,0,0,0,0,0,0,0,0,0,0,0,0,0,0,0,0,0,0,0,0,0,0,0,0,0,0,0,0,0,0,0,0,0,0,0,0,0,0,0,0,0,0,54,61,61,61,61,61,61,0,0,0,0,0,0,
0,0,0,0,0,0,0,0,0,0,0,0,0,0,0,0,0,0,0,0,0,0,0,0,0,0,0,0,0,0,0,0,0,0,0,0,0,0,0,0,0,0,0,0,0,0,0,0,0,0,0,0,0,0,0,0,0,54,61,61,61,61,61,0,0,0,0,0,0,0,
0,0,0,0,0,0,0,0,0,0,0,0,0,0,0,0,0,0,0,0,0,0,0,0,0,0,0,0,0,0,0,0,0,0,0,0,0,0,0,0,0,0,0,0,0,0,0,0,0,0,0,0,0,0,0,0,0,54,61,61,61,61,0,0,0,0,0,0,0,0,
0,0,0,0,0,0,0,0,0,0,0,0,0,0,0,0,0,0,0,0,0,0,0,0,0,0,0,0,0,0,0,0,0,0,0,0,0,0,0,0,0,0,0,0,0,0,0,0,0,0,0,0,0,0,0,0,0,54,61,61,0,0,0,0,0,0,0,0,0,0,
0,0,0,0,0,0,0,0,0,0,0,0,0,0,0,0,0,0,0,0,0,0,0,0,0,0,0,0,0,0,0,0,0,0,0,0,0,0,0,0,0,0,0,0,0,0,0,0,0,0,0,0,0,0,0,0,0,0,0,0,0,0,0,0,0,0,0,0,0,0,
0,0,0,0,0,0,0,0,0,0,0,0,0,0,0,0,0,0,0,0,0,0,0,0,0,0,0,0,0,0,0,0,0,0,0,0,0,0,0,0,0,0,0,0,0,0,0,0,0,0,0,0,0,0,0,0,0,0,0,0,0,0,0,0,0,0,0,0,0,0,
0,0,0,0,0,0,0,0,0,0,0,0,0,0,0,0,0,0,0,0,0,0,0,0,0,0,0,0,0,0,0,0,0,0,0,0,0,0,0,0,0,0,0,0,0,0,0,0,0,0,0,0,0,0,0,0,0,0,0,0,0,0,0,0,0,0,0,0,0,0,
0,0,0,0,0,0,0,0,0,0,0,0,0,0,0,0,0,0,0,0,0,0,0,0,0,0,0,0,0,0,0,0,0,0,0,0,0,0,0,0,0,0,0,0,0,0,0,0,0,0,0,0,0,0,0,0,0,0,0,0,0,0,0,0,0,0,0,0,0,0,
0,0,0,0,0,0,0,0,0,0,0,0,0,0,0,0,0,0,0,0,0,0,0,0,0,0,0,0,0,0,0,0,0,0,0,0,0,0,0,0,0,0,0,0,0,0,0,0,0,0,0,0,0,0,0,0,0,0,0,0,0,0,0,0,0,0,0,0,0,0,
0,0,0,0,0,0,0,0,0,0,0,0,0,0,0,0,0,0,0,0,0,0,0,0,0,0,0,0,0,0,0,0,0,0,0,0,0,0,0,0,0,0,0,0,0,0,0,0,0,0,0,0,0,0,0,0,0,0,0,0,0,0,0,0,0,0,0,0,0,0,
0,0,0,0,0,0,0,0,0,0,0,0,0,0,0,0,0,0,0,0,0,0,0,0,0,0,0,0,0,0,0,0,0,0,0,0,0,0,0,0,0,0,0,0,0,0,0,0,0,0,0,0,0,0,0,0,0,0,0,0,0,0,0,0,0,0,0,0,0,0
</data>
 </layer>
 <objectgroup id="4" name="player">
  <object id="35" name="player_start" type="inicio" x="0.523784" y="1407.93" width="31.3398" height="0.174595"/>
 </objectgroup>
</map>
